SouPuppy/MA4529/prism/public/data/A_analytic_5d.csv
trade_date,spot,ivol,tau,option_price,delta,gamma,theta,vega,target_qty,current_qty,diff_qty,cash_position,portfolio_value,option_liability,replication_error,realized_pnl,unrealized_pnl,action
5 October 2025,576.821087,24.491642,1.202740,65.481059,0.575002,0.002529,-0.101968,2.478964,57.500209,57.500209,57.500209,-16619.227449,16548.105892,6548.105892,10000.000000,0.000000,0.000000,INIT
6 October 2025,572.791577,24.491642,1.200000,63.083581,0.564522,0.002562,-0.101157,2.470399,56.452215,57.500209,0.000000,-16621.276521,16314.359153,6308.358099,10006.001054,4.768101,-231.697667,HOLD
7 October 2025,582.949090,24.491642,1.197260,68.845243,0.589966,0.002488,-0.103401,2.479708,58.996562,57.500209,0.000000,-16623.325846,16896.368913,6884.524302,10011.844611,9.378553,352.361417,HOLD
8 October 2025,586.523968,24.491642,1.194521,70.866010,0.598625,0.002463,-0.104172,2.478813,59.862482,57.500209,0.000000,-16625.375423,17099.875562,7086.601015,10013.274546,9.575232,557.917644,HOLD
9 October 2025,585.615635,24.491642,1.191781,70.219231,0.596195,0.002473,-0.104089,2.475966,59.619524,57.500209,0.000000,-16627.425254,17045.596403,7021.923106,10023.673297,18.740574,505.688315,HOLD
10 October 2025,578.799136,24.491642,1.189041,66.110382,0.578940,0.002530,-0.102812,2.468433,57.893979,57.500209,0.000000,-16629.475336,16651.596187,6611.038235,10040.557952,34.391668,113.738182,HOLD
11 October 2025,575.178975,24.491642,1.186301,63.929099,0.569508,0.002561,-0.102110,2.461225,56.950777,57.500209,0.000000,-16631.525672,16441.385874,6392.909874,10048.475999,41.076003,-94.421795,HOLD
12 October 2025,560.568589,24.491642,1.183562,55.786801,0.531081,0.002663,-0.098583,2.425569,53.108097,57.500209,0.000000,-16633.576261,15599.235019,5578.680093,10020.554926,11.921064,-934.522062,HOLD
13 October 2025,553.955900,24.491642,1.180822,52.236678,0.513050,0.002705,-0.096795,2.400187,51.305039,57.500209,0.000000,-16635.627102,15216.953150,5223.667756,9993.285394,-16.582486,-1314.753090,HOLD
14 October 2025,556.772728,24.491642,1.178082,53.594918,0.520363,0.002692,-0.097681,2.407740,52.036251,57.500209,0.000000,-16637.678196,15376.870259,5359.491758,10017.378501,6.276452,-1152.784886,HOLD
15 October 2025,555.658554,24.491642,1.175342,52.919416,0.517071,0.002701,-0.097436,2.401057,51.707150,51.707150,-5.793060,-13420.766476,15310.753684,5291.941620,10018.812065,6.475694,-1094.254298,SELL
16 October 2025,556.250169,24.491642,1.172603,53.128152,0.518382,0.002701,-0.097681,2.400459,51.838181,51.707150,0.000000,-13422.421193,15339.689711,5312.815236,10026.874475,13.303631,-1063.663554,HOLD
17 October 2025,553.231759,24.491642,1.169863,51.478959,0.509905,0.002721,-0.096872,2.386441,50.990507,51.707150,0.000000,-13424.076114,15181.961406,5147.895925,10034.065481,19.260011,-1219.736938,HOLD
18 October 2025,553.412067,24.491642,1.167123,51.473981,0.510098,0.002724,-0.096999,2.384393,51.009817,51.707150,0.000000,-13425.731240,15189.629508,5147.398101,10042.231407,26.191159,-1210.413710,HOLD
19 October 2025,552.602258,24.491642,1.164384,50.964999,0.507590,0.002731,-0.096830,2.378440,50.758999,51.707150,0.000000,-13427.386569,15146.101269,5096.499909,10049.601360,32.326182,-1252.286620,HOLD
20 October 2025,548.871462,24.491642,1.161644,48.994618,0.497051,0.002753,-0.095754,2.359964,49.705092,49.705092,-2.002058,-12330.169684,14951.536879,4899.461763,10052.075115,33.564854,-1389.238710,SELL
21 October 2025,543.518453,24.491642,1.158904,46.279409,0.481913,0.002781,-0.094094,2.331855,48.191338,49.705092,0.000000,-12331.689935,14683.944848,4627.940916,10056.003932,36.258436,-1655.310490,HOLD
22 October 2025,545.089890,24.491642,1.156164,46.945491,0.485951,0.002777,-0.094680,2.336784,48.595100,49.705092,0.000000,-12333.210374,14760.532816,4694.549099,10065.983717,45.002834,-1577.202082,HOLD
23 October 2025,544.870273,24.491642,1.153425,46.744193,0.485012,0.002782,-0.094675,2.332873,48.501213,49.705092,0.000000,-12334.731001,14748.096088,4674.419324,10073.676764,51.460341,-1588.118184,HOLD
24 October 2025,545.888382,24.491642,1.150685,47.144386,0.487516,0.002780,-0.095078,2.334960,48.751554,49.705092,0.000000,-12336.251815,14797.180469,4714.438586,10082.741882,59.289768,-1537.512989,HOLD
25 October 2025,545.178513,24.491642,1.147945,46.704135,0.485211,0.002787,-0.094914,2.328686,48.521135,48.521135,-1.183957,-11692.305038,14760.375393,4670.413537,10089.961857,65.273898,-1535.333624,SELL
26 October 2025,553.184221,24.491642,1.145205,50.580016,0.507066,0.002751,-0.097524,2.361312,50.706640,48.521135,0.000000,-11693.746644,15147.379800,5058.001576,10089.378224,63.454269,-1146.887611,HOLD
27 October 2025,566.934947,24.491642,1.142466,57.708750,0.544090,0.002672,-0.101474,2.402712,54.409027,48.521135,0.000000,-11695.188428,15813.138860,5770.875031,10042.263829,15.103724,-479.686768,HOLD
28 October 2025,563.155698,24.491642,1.139726,55.571123,0.533675,0.002700,-0.100555,2.389945,53.367484,48.521135,0.000000,-11696.630389,15628.323458,5557.112251,10071.211207,42.814801,-663.060209,HOLD
29 October 2025,571.316177,24.491642,1.136986,59.912759,0.555241,0.002648,-0.102748,2.406988,55.524122,48.521135,0.000000,-11698.072529,16022.837032,5991.275868,10031.561163,1.928304,-267.104495,HOLD
30 October 2025,556.691490,24.491642,1.134247,51.980413,0.515506,0.002745,-0.098882,2.363470,51.550636,51.550636,3.029501,-13386.012204,15311.788309,5198.041256,10113.747053,82.877587,-976.710901,BUY
31 October 2025,548.913898,24.491642,1.131507,47.957956,0.493670,0.002789,-0.096556,2.329100,49.366972,51.550636,0.000000,-13387.662636,14909.198060,4795.795619,10113.402441,81.296216,-1377.650717,HOLD
1 November 2025,554.445289,24.491642,1.128767,50.632844,0.508718,0.002765,-0.098364,2.349455,50.871846,51.550636,0.000000,-13389.313271,15192.694145,5063.284355,10129.409790,96.066654,-1092.503998,HOLD
2 November 2025,557.125645,24.491642,1.126027,51.907096,0.515813,0.002753,-0.099247,2.356657,51.581316,51.550636,0.000000,-13390.964110,15329.217364,5190.709592,10138.507772,103.927572,-954.329939,HOLD
3 November 2025,565.277009,24.491642,1.123288,56.101020,0.537788,0.002707,-0.101630,2.379375,53.778781,51.550636,0.000000,-13392.615153,15747.774314,5610.102047,10137.672266,101.854850,-534.121947,HOLD
4 November 2025,556.967672,24.491642,1.120548,51.627086,0.514784,0.002761,-0.099359,2.350482,51.478385,51.550636,0.000000,-13394.266399,15317.771461,5162.708627,10155.062833,118.008048,-962.473554,HOLD
5 November 2025,554.238772,24.491642,1.117808,50.134019,0.506921,0.002779,-0.098612,2.337358,50.692131,51.550636,0.000000,-13395.917849,15175.443475,5013.401897,10162.041578,123.749271,-1103.150090,HOLD
6 November 2025,549.280380,24.491642,1.115068,47.557697,0.492751,0.002808,-0.097116,2.313573,49.275132,51.550636,0.000000,-13397.569502,14918.183574,4755.769740,10162.413835,122.883854,-1358.758337,HOLD
7 November 2025,553.302527,24.491642,1.112329,49.463837,0.503693,0.002791,-0.098477,2.327934,50.369282,51.550636,0.000000,-13399.221359,15123.875946,4946.383713,10177.492233,136.724426,-1151.414109,HOLD
8 November 2025,550.826994,24.491642,1.109589,48.127764,0.496446,0.002807,-0.097768,2.314670,49.644566,51.550636,0.000000,-13400.873420,14994.608555,4812.776446,10181.832109,139.826323,-1279.029439,HOLD
9 November 2025,541.207850,24.491642,1.106849,43.388396,0.468878,0.002852,-0.094580,2.264614,46.887821,46.887821,-4.662815,-10878.973746,14497.083321,4338.839584,10158.243738,114.999820,-1614.360430,SELL
10 November 2025,541.692616,24.491642,1.104110,43.521241,0.469906,0.002854,-0.094821,2.264285,46.990596,46.887821,0.000000,-10880.315072,14518.471627,4352.124092,10166.347536,121.865333,-1591.630799,HOLD
11 November 2025,538.520768,24.491642,1.101370,41.951433,0.460471,0.002868,-0.093744,2.243573,46.047086,46.887821,0.000000,-10881.656563,14368.409062,4195.143289,10173.265773,127.545133,-1740.351872,HOLD
12 November 2025,546.894952,24.491642,1.098630,45.810985,0.484022,0.002839,-0.096768,2.285026,48.402173,46.887821,0.000000,-10882.998220,14759.714666,4581.098459,10178.616207,131.656977,-1347.704612,HOLD
13 November 2025,545.683265,24.491642,1.095890,45.130196,0.480235,0.002848,-0.096428,2.276150,48.023464,46.887821,0.000000,-10884.340042,14701.559488,4513.019627,10188.539861,140.341889,-1404.517968,HOLD
14 November 2025,544.506757,24.491642,1.093151,44.471112,0.476533,0.002856,-0.096092,2.267259,47.653264,46.887821,0.000000,-10885.682030,14645.053593,4447.111199,10197.942394,148.505526,-1459.681875,HOLD
15 November 2025,549.424579,24.491642,1.090411,46.751266,0.490195,0.002838,-0.097843,2.288137,49.019542,46.887821,0.000000,-10887.024183,14874.297388,4675.126572,10199.170816,148.494900,-1229.095926,HOLD
16 November 2025,557.880613,24.491642,1.087671,50.896782,0.513714,0.002798,-0.100613,2.319762,51.371359,46.887821,0.000000,-10888.366502,15269.440113,5089.678189,10179.761925,127.846808,-832.610883,HOLD
17 November 2025,551.455070,24.491642,1.084932,47.555268,0.495296,0.002836,-0.098668,2.291349,49.529597,46.887821,0.000000,-10889.708986,14966.817903,4755.526838,10211.291065,158.136595,-1133.890609,HOLD
18 November 2025,570.571535,24.491642,1.082192,57.431012,0.548210,0.002724,-0.104358,2.350637,54.821034,46.887821,0.000000,-10891.051636,15861.804660,5743.101169,10118.703491,64.309515,-237.561203,HOLD
19 November 2025,576.367994,24.491642,1.079452,60.548379,0.563642,0.002685,-0.105891,2.358512,56.364207,56.364207,9.476386,-16354.279881,16132.245158,6054.837928,10077.407229,21.773594,34.222110,BUY
20 November 2025,588.647142,24.491642,1.076712,67.560863,0.595825,0.002589,-0.108640,2.366135,59.582482,56.364207,0.000000,-16356.296287,16822.333182,6756.086260,10066.246922,9.373474,726.326540,HOLD
21 November 2025,590.662400,24.491642,1.073973,68.657776,0.600839,0.002576,-0.109126,2.363569,60.083918,56.364207,0.000000,-16358.312941,16933.904972,6865.777598,10068.127374,10.013962,839.914984,HOLD
22 November 2025,591.337446,24.491642,1.071233,68.954654,0.602391,0.002573,-0.109354,2.360804,60.239138,56.364207,0.000000,-16360.329843,16969.936480,6895.465360,10074.471120,15.117590,877.963395,HOLD
23 November 2025,594.864314,24.491642,1.068493,70.985112,0.611240,0.002545,-0.110088,2.357099,61.123964,56.364207,0.000000,-16362.346995,17166.708449,7098.511224,10068.197224,7.603423,1076.752515,HOLD
24 November 2025,600.414691,24.491642,1.065753,74.305627,0.625074,0.002498,-0.111096,2.350259,62.507357,62.507357,6.143149,-20052.801568,17477.533665,7430.562701,10046.970964,-14.863261,1389.595131,BUY
25 November 2025,588.932378,24.491642,1.063014,67.186160,0.595596,0.002605,-0.109210,2.352512,59.559552,62.507357,0.000000,-20055.273983,16757.332224,6718.615970,10038.716254,-24.358547,671.866106,HOLD
26 November 2025,585.094943,24.491642,1.060274,64.811375,0.585326,0.002642,-0.108540,2.348321,58.532629,62.507357,0.000000,-20057.746704,16514.991596,6481.137525,10033.854072,-30.461459,431.998198,HOLD
27 November 2025,578.828764,24.491642,1.057534,61.088608,0.568380,0.002696,-0.107257,2.339724,56.837981,62.507357,0.000000,-20060.219729,16120.836269,6108.860831,10011.975438,-53.580975,40.315897,HOLD
28 November 2025,576.813946,24.491642,1.054795,59.842080,0.562691,0.002716,-0.106880,2.334119,56.269085,62.507357,0.000000,-20062.693059,15992.422009,5984.208007,10008.214002,-58.583447,-85.625033,HOLD
29 November 2025,576.515903,24.491642,1.052055,59.567637,0.561639,0.002722,-0.106907,2.330854,56.163865,56.163865,-6.343491,-16408.042968,15971.318468,5956.763714,10014.554754,-53.483884,-93.674739,SELL
30 November 2025,570.690999,24.491642,1.049315,56.237088,0.545394,0.002768,-0.105525,2.317077,54.539355,56.163865,0.000000,-16410.066003,15642.146292,5623.708848,10018.437444,-50.842535,-420.823882,HOLD
1 December 2025,559.396263,24.491642,1.046575,50.152886,0.513393,0.002845,-0.102370,2.281760,51.339335,56.163865,0.000000,-16412.089286,15005.767017,5015.288574,9990.478443,-80.043030,-1055.179872,HOLD
2 December 2025,564.299345,24.491642,1.043836,52.600285,0.526979,0.002819,-0.103935,2.294780,52.697854,56.163865,0.000000,-16414.112819,15279.119484,5260.028471,10019.091013,-52.672108,-779.803873,HOLD
3 December 2025,571.092679,24.491642,1.041096,56.139054,0.545710,0.002777,-0.105924,2.309398,54.570994,56.163865,0.000000,-16416.136602,15658.635642,5613.905400,10044.730243,-28.274679,-398.263932,HOLD
4 December 2025,572.388141,24.491642,1.038356,56.742013,0.549040,0.002772,-0.106364,2.309277,54.904019,54.904019,-1.259846,-15697.039730,15729.369717,5674.201315,10055.168402,-19.078474,-318.204205,SELL
5 December 2025,577.558084,24.491642,1.035616,59.509675,0.563028,0.002737,-0.107767,2.315472,56.302839,54.904019,0.000000,-15698.975101,16011.285035,5950.967481,10060.317555,-15.171428,-34.353516,HOLD
6 December 2025,579.369310,24.491642,1.032877,60.425677,0.567737,0.002726,-0.108303,2.315094,56.773709,54.904019,0.000000,-15700.910710,16108.793020,6042.567693,10066.225327,-10.505916,65.090078,HOLD
7 December 2025,584.331503,24.491642,1.030137,63.166823,0.580950,0.002690,-0.109530,2.317135,58.095000,54.904019,0.000000,-15702.846558,16379.301464,6316.682318,10062.619147,-15.354510,337.534371,HOLD
8 December 2025,593.143409,24.491642,1.027397,68.278208,0.604134,0.002617,-0.111401,2.316315,60.413406,54.904019,0.000000,-15704.782645,16861.174472,6827.820781,10033.353691,-45.862532,821.343465,HOLD
9 December 2025,591.890545,24.491642,1.024658,67.412142,0.600661,0.002632,-0.111279,2.313740,60.066063,60.066063,5.162044,-18762.084159,16790.450853,6741.214229,10049.236624,-31.222319,752.556171,BUY
10 December 2025,586.105278,24.491642,1.021918,63.871309,0.585076,0.002686,-0.110233,2.309754,58.507618,60.066063,0.000000,-18764.397435,16440.639398,6387.130932,10053.508466,-28.193349,405.057993,HOLD
11 December 2025,584.286376,24.491642,1.019178,62.701668,0.579957,0.002706,-0.109951,2.305788,57.995713,60.066063,0.000000,-18766.710997,16329.071518,6270.166837,10058.904681,-24.040161,295.803674,HOLD
12 December 2025,593.620209,24.491642,1.016438,68.119712,0.604652,0.002628,-0.111935,2.304959,60.465239,60.066063,0.000000,-18769.024844,16887.404275,6811.971185,10075.433090,-8.754932,856.450278,HOLD
13 December 2025,602.938356,24.491642,1.013699,73.753234,0.628580,0.002543,-0.113586,2.294891,62.858048,60.066063,0.000000,-18771.338976,17444.794572,7375.323356,10069.471216,-15.960138,1416.154707,HOLD
14 December 2025,607.912829,24.491642,1.010959,76.797015,0.640977,0.002497,-0.114389,2.284589,64.097718,64.097718,4.031655,-21224.548125,17741.277139,7679.701518,10061.575621,-25.099219,1714.951691,BUY
15 December 2025,595.796755,24.491642,1.008219,69.104492,0.609825,0.002619,-0.112665,2.295616,60.982518,64.097718,0.000000,-21227.165012,16962.047557,6910.449159,10051.598399,-36.320080,938.338996,HOLD
16 December 2025,604.043498,24.491642,1.005479,74.107692,0.630954,0.002543,-0.114096,2.284996,63.095402,64.097718,0.000000,-21229.782221,17488.027772,7410.769218,10077.258554,-11.903717,1466.936420,HOLD
17 December 2025,588.447533,24.491642,1.002740,64.471321,0.589920,0.002694,-0.111496,2.290809,58.992044,64.097718,0.000000,-21232.399753,16485.744440,6447.132116,10038.612324,-51.793894,467.270619,HOLD
18 December 2025,594.415507,24.491642,1.000000,67.926901,0.605656,0.002644,-0.112764,2.287717,60.565561,64.097718,0.000000,-21235.017607,16865.660159,6792.690091,10072.970068,-18.680249,849.804193,HOLD
19 December 2025,587.369084,24.491642,0.997260,63.613920,0.586591,0.002711,-0.111498,2.284711,58.659078,58.659078,-5.438641,-18043.146457,16411.382333,6361.391967,10049.990366,-42.904204,364.362295,SELL
20 December 2025,589.904426,24.491642,0.994521,64.997742,0.593236,0.002693,-0.112133,2.282532,59.323647,58.659078,0.000000,-18045.371091,16557.878487,6499.774233,10058.104254,-36.034722,513.083084,HOLD
21 December 2025,585.298465,24.491642,0.991781,62.182804,0.580520,0.002737,-0.111280,2.277861,58.052000,58.659078,0.000000,-18047.596000,16285.472183,6218.280448,10067.191735,-28.191800,242.901689,HOLD
22 December 2025,583.219978,24.491642,0.989041,60.871256,0.574584,0.002759,-0.110927,2.273370,57.458369,58.659078,0.000000,-18049.821184,16161.324881,6087.125597,10074.199284,-22.428965,120.979570,HOLD
23 December 2025,573.014755,24.491642,0.986301,55.044185,0.545736,0.002844,-0.108486,2.255351,54.573628,58.659078,0.000000,-18052.046641,15560.470439,5504.418542,10056.051896,-41.821219,-477.649414,HOLD
24 December 2025,580.140385,24.491642,0.983562,58.894266,0.565564,0.002793,-0.110426,2.264256,56.556374,56.556374,-2.102703,-16834.409270,15976.227563,5889.426576,10086.800986,-12.317149,-57.527741,SELL
25 December 2025,579.719659,24.491642,0.980822,58.546186,0.564144,0.002800,-0.110436,2.260792,56.414358,56.556374,0.000000,-16836.484873,15950.357264,5854.618623,10095.738641,-4.624668,-81.322437,HOLD
26 December 2025,584.073797,24.491642,0.978082,60.917459,0.576032,0.002769,-0.111576,2.262461,57.603233,56.556374,0.000000,-16838.560732,16194.535625,6091.745920,10102.789705,1.181069,164.931783,HOLD
27 December 2025,597.684103,24.491642,0.975342,68.895815,0.612717,0.002649,-0.114403,2.260206,61.271686,56.556374,0.000000,-16840.636847,16962.209102,6889.581547,10072.627555,-30.226562,934.681376,HOLD
28 December 2025,589.885245,24.491642,0.972603,64.085624,0.591569,0.002726,-0.113061,2.259434,59.156855,56.556374,0.000000,-16842.713218,16519.057592,6408.562419,10110.495173,6.395422,493.606236,HOLD
29 December 2025,592.163947,24.491642,0.969863,65.327118,0.597562,0.002709,-0.113634,2.256601,59.756201,59.756201,3.199826,-18739.611705,16645.856110,6532.711798,10113.144312,7.798774,622.481382,BUY
30 December 2025,593.634504,24.491642,0.967123,66.094815,0.601347,0.002700,-0.114036,2.253440,60.134733,59.756201,0.000000,-18741.922211,16731.420457,6609.481520,10121.938937,15.347457,710.356233,HOLD
31 December 2025,582.963990,24.491642,0.964384,59.721837,0.571789,0.002799,-0.111898,2.246819,57.178939,59.756201,0.000000,-18744.233001,16091.480285,5972.183701,10119.296584,11.459010,72.726852,HOLD
1 January 2026,587.548767,24.491642,0.961644,62.259659,0.584317,0.002764,-0.113047,2.247056,58.431747,59.756201,0.000000,-18746.544076,16363.138095,6225.965857,10137.172239,28.088416,346.695738,HOLD
2 January 2026,588.596001,24.491642,0.958904,62.759760,0.586996,0.002759,-0.113390,2.244512,58.699575,59.756201,0.000000,-18748.855437,16423.405465,6275.975962,10147.429503,37.099278,409.274468,HOLD
3 January 2026,591.349025,24.491642,0.956164,64.272179,0.594356,0.002738,-0.114077,2.242027,59.435618,59.756201,0.000000,-18751.167082,16585.604038,6427.217893,10158.386145,46.809363,573.784686,HOLD
4 January 2026,596.740247,24.491642,0.953425,67.400872,0.608802,0.002691,-0.115218,2.237553,60.880228,59.756201,0.000000,-18753.479012,16905.451061,6740.087229,10165.363832,52.540341,895.943640,HOLD
5 January 2026,603.630447,24.491642,0.950685,71.542575,0.626959,0.002626,-0.116468,2.228081,62.695928,59.756201,0.000000,-18755.791227,17314.871015,7154.257466,10160.613549,46.543195,1307.675809,HOLD
6 January 2026,592.412914,24.491642,0.947945,64.562641,0.596675,0.002741,-0.114657,2.233153,59.667545,59.756201,0.000000,-18758.103728,16642.241410,6456.264083,10185.977327,70.659956,637.358704,HOLD
7 January 2026,585.228336,24.491642,0.945205,60.233892,0.576520,0.002810,-0.113253,2.227974,57.652006,59.756201,0.000000,-18760.416513,16210.605533,6023.389225,10187.216308,70.651766,208.035613,HOLD
8 January 2026,584.463479,24.491642,0.942466,59.680622,0.574136,0.002821,-0.113198,2.224404,57.413624,57.413624,-2.342576,-17393.579189,16162.587480,5968.062180,10194.525300,76.713433,155.966906,SELL
9 January 2026,574.103876,24.491642,0.939726,53.775114,0.544190,0.002909,-0.110669,2.206612,54.419009,57.413624,0.000000,-17395.723735,15565.660602,5377.511369,10188.149233,69.089888,-438.815425,HOLD
10 January 2026,571.083925,24.491642,0.936986,52.035123,0.535079,0.002935,-0.109919,2.196814,53.507924,57.413624,0.000000,-17397.868546,15390.129468,5203.512258,10186.617210,66.310233,-612.201748,HOLD
11 January 2026,576.628771,24.491642,0.934247,54.935437,0.550974,0.002899,-0.111593,2.205325,55.097391,57.413624,0.000000,-17400.013620,15706.334077,5493.543697,10212.790380,91.235617,-293.852065,HOLD
12 January 2026,574.115351,24.491642,0.931507,53.448824,0.543383,0.002922,-0.111019,2.197476,54.338338,57.413624,0.000000,-17402.158960,15559.884210,5344.882404,10215.001807,92.199104,-438.156592,HOLD
13 January 2026,567.834465,24.491642,0.928767,49.984615,0.524578,0.002971,-0.109275,2.179014,52.457758,52.457758,-4.955867,-14590.192742,15197.130144,4998.461550,10198.668594,74.617797,-729.816734,SELL
14 January 2026,565.478612,24.491642,0.926027,48.648461,0.517239,0.002991,-0.108641,2.168865,51.723900,52.457758,0.000000,-14591.991644,15071.748491,4864.846063,10206.902429,81.603385,-853.399484,HOLD
15 January 2026,568.852268,24.491642,0.923288,50.300667,0.526985,0.002973,-0.109814,2.175620,52.698464,52.457758,0.000000,-14593.790767,15246.923784,5030.066718,10216.857066,90.309620,-676.425068,HOLD
16 January 2026,566.996531,24.491642,0.920548,49.218557,0.521139,0.002990,-0.109348,2.167222,52.113922,52.457758,0.000000,-14595.590113,15147.776646,4921.855721,10225.920926,98.124925,-773.772860,HOLD
17 January 2026,559.662952,24.491642,0.917808,45.370600,0.498697,0.003038,-0.107007,2.138998,49.869654,52.457758,0.000000,-14597.389680,14761.273983,4537.059954,10224.214030,95.169319,-1158.475956,HOLD
18 January 2026,550.090727,24.491642,0.915068,40.633386,0.469000,0.003086,-0.103534,2.092943,46.900001,46.900001,-5.557757,-11541.918768,14257.336713,4063.338597,10193.998116,63.704542,-1484.675946,SELL
19 January 2026,541.375183,24.491642,0.912329,36.563412,0.441547,0.003116,-0.100010,2.040745,44.154675,46.900001,0.000000,-11543.341832,13847.154623,3656.341167,10190.813456,59.270865,-1893.434972,HOLD
20 January 2026,542.279366,24.491642,0.909589,36.863481,0.443933,0.003118,-0.100486,2.042859,44.393281,46.900001,0.000000,-11544.765072,13888.137585,3686.348135,10201.789450,68.997688,-1851.028771,HOLD
21 January 2026,541.237059,24.491642,0.906849,36.302385,0.440245,0.003125,-0.100118,2.033090,44.024491,46.900001,0.000000,-11546.188487,13837.829950,3630.238524,10207.591426,73.550338,-1899.912992,HOLD
22 January 2026,554.920775,24.491642,0.904110,42.512232,0.482355,0.003084,-0.105796,2.102938,48.235523,46.900001,0.000000,-11547.612077,14478.172643,4251.223183,10226.949460,91.658893,-1258.146708,HOLD
23 January 2026,549.161160,24.491642,0.901370,39.681752,0.464118,0.003112,-0.103637,2.071572,46.411812,46.900001,0.000000,-11549.035843,14206.622954,3968.175166,10238.447788,101.907587,-1528.272631,HOLD
24 January 2026,542.837432,24.491642,0.898630,36.708115,0.443946,0.003134,-0.101073,2.032614,44.394598,46.900001,0.000000,-11550.459785,13908.616174,3670.811504,10237.804670,100.014682,-1824.855469,HOLD
25 January 2026,538.909986,24.491642,0.895890,34.889359,0.431170,0.003146,-0.099416,2.004587,43.116955,46.900001,0.000000,-11551.883902,13722.994842,3488.935922,10234.058920,95.018991,-2009.052684,HOLD
26 January 2026,535.605760,24.491642,0.893151,33.383921,0.420302,0.003154,-0.097975,1.978947,42.030168,46.900001,0.000000,-11553.308195,13566.602340,3338.392124,10228.210216,87.920191,-2164.020893,HOLD
27 January 2026,544.372878,24.491642,0.890411,37.087855,0.447466,0.003143,-0.102004,2.031489,44.746587,46.900001,0.000000,-11554.732663,13976.355689,3708.785500,10267.570189,126.029914,-1752.843076,HOLD
28 January 2026,529.997045,24.491642,0.887671,30.885469,0.401625,0.003162,-0.095427,1.931216,40.162523,40.162523,-6.737478,-7985.314038,13300.704483,3088.546875,10212.157608,69.366929,-2078.405943,SELL
29 January 2026,529.832908,24.491642,0.884932,30.724209,0.400612,0.003166,-0.095415,1.926371,40.061168,40.162523,0.000000,-7986.298589,13293.127786,3072.420950,10220.706836,76.665599,-2084.998088,HOLD
30 January 2026,529.749556,24.491642,0.882192,30.595421,0.399851,0.003170,-0.095442,1.922128,39.985136,40.162523,0.000000,-7987.283262,13288.795472,3059.542063,10229.253409,83.961459,-2088.345730,HOLD
31 January 2026,522.659689,24.491642,0.879452,27.748290,0.376880,0.003164,-0.091879,1.861523,37.688032,40.162523,0.000000,-7988.268056,13003.063736,2774.828975,10228.234760,81.691945,-2373.092672,HOLD
1 February 2026,528.188275,24.491642,0.876712,29.785548,0.393893,0.003176,-0.094794,1.902798,39.389320,40.162523,0.000000,-7989.252972,13224.120781,2978.554783,10245.565998,97.772161,-2151.050712,HOLD
2 February 2026,531.315353,24.491642,0.873973,30.936422,0.403335,0.003183,-0.096431,1.923120,40.333505,40.162523,0.000000,-7990.238009,13348.727063,3093.642210,10255.084853,106.039841,-2025.459392,HOLD
3 February 2026,526.198629,24.491642,0.871233,28.820441,0.386544,0.003181,-0.093906,1.879635,38.654406,40.162523,0.000000,-7991.223168,13142.241381,2882.044056,10260.197325,109.900984,-2230.959915,HOLD
4 February 2026,528.551274,24.491642,0.868493,29.643503,0.393523,0.003188,-0.095181,1.894668,39.352342,40.162523,0.000000,-7992.208448,13235.744276,2964.350264,10271.394012,119.846187,-2136.471741,HOLD
5 February 2026,528.137093,24.491642,0.865753,29.385784,0.391690,0.003192,-0.095036,1.887740,39.169034,40.162523,0.000000,-7993.193849,13218.124312,2938.578369,10279.545943,126.746480,-2153.106303,HOLD
6 February 2026,526.527557,24.491642,0.863014,28.665240,0.386034,0.003193,-0.094269,1.871197,38.603430,40.162523,0.000000,-7994.179372,13152.495731,2866.524033,10285.971698,131.920444,-2217.749361,HOLD
7 February 2026,526.009056,24.491642,0.860274,28.371481,0.383855,0.003196,-0.094062,1.863274,38.385461,38.385461,-1.777062,-7060.414242,13130.685803,2837.148057,10293.537746,138.234545,-2139.523979,SELL
8 February 2026,533.264632,24.491642,0.857534,31.142980,0.406582,0.003208,-0.097845,1.915794,40.658161,38.385461,0.000000,-7061.284758,13408.323913,3114.298012,10294.025901,137.470599,-1861.015354,HOLD
9 February 2026,543.173920,24.491642,0.854795,35.226742,0.437889,0.003204,-0.102661,1.979126,43.788940,38.385461,0.000000,-7062.155381,13787.825882,3522.674238,10265.151644,107.344087,-1480.642761,HOLD
10 February 2026,553.599359,24.491642,0.852055,39.858398,0.470749,0.003179,-0.107272,2.033152,47.074880,38.385461,0.000000,-7063.026111,14187.140420,3985.839821,10201.300599,42.240632,-1080.457494,HOLD
11 February 2026,536.174909,24.491642,0.849315,32.041635,0.414453,0.003220,-0.099521,1.925794,41.445271,38.385461,0.000000,-7063.896949,13517.424025,3204.163527,10313.260498,152.947968,-1749.303050,HOLD
12 February 2026,544.728176,24.491642,0.846575,35.600682,0.441513,0.003215,-0.103650,1.977979,44.151274,44.151274,5.765813,-10205.568768,13844.874200,3560.068238,10284.805963,123.240713,-1420.981930,BUY
13 February 2026,560.031131,24.491642,0.843836,42.621796,0.489971,0.003165,-0.110149,2.051700,48.997111,44.151274,0.000000,-10206.827066,14519.260838,4262.179630,10257.081208,94.263086,-745.336994,HOLD
14 February 2026,555.129463,24.491642,0.841096,40.149961,0.473993,0.003193,-0.108335,2.026763,47.399346,44.151274,0.000000,-10208.085520,14301.587518,4014.996069,10286.591449,122.520299,-961.751860,HOLD
15 February 2026,553.629587,24.491642,0.838356,39.334848,0.468786,0.003204,-0.107830,2.016098,46.878581,44.151274,0.000000,-10209.344129,14234.107488,3933.484778,10300.622710,135.298378,-1027.973282,HOLD
16 February 2026,549.277340,24.491642,0.835616,37.218938,0.454373,0.003223,-0.106080,1.989997,45.437296,44.151274,0.000000,-10210.602892,14040.691474,3721.893759,10318.797715,152.220047,-1220.130532,HOLD
17 February 2026,554.447348,24.491642,0.832877,39.502714,0.470579,0.003210,-0.108392,2.013157,47.057902,47.057902,2.906628,-11823.433894,14267.694978,3950.271391,10317.423588,149.592429,-991.868108,BUY
18 February 2026,554.314675,24.491642,0.830137,39.331917,0.469738,0.003216,-0.108449,2.009044,46.973766,47.057902,0.000000,-11824.891667,14259.993912,3933.191658,10326.802254,157.717450,-998.111401,HOLD
19 February 2026,556.873360,24.491642,0.827397,40.434788,0.477549,0.003211,-0.109613,2.017600,47.754939,47.057902,0.000000,-11826.349620,14378.942307,4043.478846,10335.463461,165.124856,-877.705053,HOLD
20 February 2026,554.123725,24.491642,0.824658,39.025315,0.468287,0.003227,-0.108595,2.001145,46.828651,47.057902,0.000000,-11827.807753,14248.092077,3902.531484,10345.560593,173.968034,-1007.097151,HOLD
21 February 2026,562.864288,24.491642,0.821918,43.129068,0.495951,0.003192,-0.112193,2.035662,49.595060,47.057902,0.000000,-11829.266066,14657.946328,4312.906764,10345.039564,172.192896,-595.784587,HOLD
22 February 2026,565.622366,24.491642,0.819178,44.395785,0.504371,0.003182,-0.113339,2.042207,50.437110,50.437110,3.379208,-13742.080288,14786.277206,4439.578487,10346.698719,172.597786,-465.995216,BUY
23 February 2026,562.444904,24.491642,0.816438,42.697034,0.493853,0.003205,-0.112286,2.027217,49.385274,50.437110,0.000000,-13743.774621,14624.320862,4269.703366,10354.617496,179.262145,-626.257226,HOLD
24 February 2026,563.051963,24.491642,0.813699,42.884842,0.495419,0.003207,-0.112643,2.026104,49.541920,50.437110,0.000000,-13745.469164,14653.244660,4288.484240,10364.760419,188.150495,-595.638886,HOLD
25 February 2026,577.203797,24.491642,0.810959,50.096674,0.539874,0.003118,-0.117603,2.063299,53.987406,50.437110,0.000000,-13747.163915,15365.327518,5009.667394,10355.660124,177.795472,118.138723,HOLD
26 February 2026,583.605655,24.491642,0.808219,53.496909,0.559400,0.003070,-0.119577,2.069875,55.939999,50.437110,0.000000,-13748.858875,15686.523727,5349.690899,10336.832828,157.713294,441.029893,HOLD
27 February 2026,580.523136,24.491642,0.805479,51.668379,0.549609,0.003102,-0.118872,2.062441,54.960934,54.960934,4.523824,-16376.738638,15529.355227,5166.837872,10362.517355,182.142783,285.556562,BUY
28 February 2026,573.511230,24.491642,0.802740,47.774498,0.527335,0.003163,-0.116871,2.045118,52.733460,54.960934,0.000000,-16378.757812,15141.955139,4777.449756,10364.505383,182.875619,-99.824352,HOLD
1 March 2026,578.837342,24.491642,0.800000,50.509208,0.543775,0.003127,-0.118676,2.052989,54.377519,54.960934,0.000000,-16380.777236,15432.663839,5050.920797,10381.743042,198.857931,192.903772,HOLD
2 March 2026,587.052792,24.491642,0.797260,54.960315,0.568927,0.003061,-0.121084,2.059870,56.892740,54.960934,0.000000,-16382.796908,15882.172962,5496.031516,10386.141446,202.000834,644.432567,HOLD
3 March 2026,583.056960,24.491642,0.794521,52.591403,0.556348,0.003103,-0.120185,2.052639,55.634808,54.960934,0.000000,-16384.816830,15660.538381,5259.140322,10401.398059,216.001790,424.817907,HOLD
4 March 2026,564.915678,24.491642,0.791781,42.902809,0.498397,0.003240,-0.114396,2.005362,49.839654,49.839654,-5.121280,-13493.745587,14661.456392,4290.280877,10371.175515,184.523435,-518.922013,SELL
5 March 2026,568.046114,24.491642,0.789041,44.363232,0.508150,0.003228,-0.115693,2.012579,50.815001,49.839654,0.000000,-13495.409302,14815.812543,4436.323165,10379.489378,191.581332,-362.902146,HOLD
6 March 2026,574.854143,24.491642,0.786301,47.779082,0.529645,0.003187,-0.118177,2.027967,52.964498,49.839654,0.000000,-13497.073222,15153.458426,4777.908152,10375.550275,186.386108,-23.592343,HOLD
7 March 2026,578.439555,24.491642,0.783562,49.579121,0.540717,0.003165,-0.119456,2.032052,54.071671,49.839654,0.000000,-13498.737348,15330.490008,4957.912136,10372.577872,182.157429,155.103364,HOLD
8 March 2026,583.505203,24.491642,0.780822,52.237621,0.556365,0.003128,-0.121084,2.036419,55.636462,49.839654,0.000000,-13500.401678,15581.295798,5223.762057,10357.533741,165.856868,407.573484,HOLD
9 March 2026,577.299242,24.491642,0.778082,48.726084,0.536477,0.003185,-0.119407,2.023034,53.647727,53.647727,3.808073,-15700.464011,15270.328332,4872.608360,10397.719972,204.786513,98.270554,BUY
10 March 2026,580.262983,24.491642,0.775342,50.209629,0.545586,0.003167,-0.120467,2.025042,54.558567,53.647727,0.000000,-15702.399804,15427.390504,5020.962906,10406.427598,212.237399,257.268519,HOLD
11 March 2026,594.378612,24.491642,0.772603,58.098099,0.589171,0.003040,-0.124250,2.031973,58.917072,53.647727,0.000000,-15704.335836,16182.725864,5809.809928,10372.915937,177.468842,1014.539911,HOLD
12 March 2026,590.436558,24.491642,0.769863,55.675843,0.576870,0.003086,-0.123519,2.028274,57.686953,53.647727,0.000000,-15706.272106,15969.307345,5567.584271,10401.723075,205.018929,803.057663,HOLD
13 March 2026,585.745814,24.491642,0.767123,52.881597,0.562021,0.003137,-0.122495,2.021905,56.202137,53.647727,0.000000,-15708.208615,15715.723115,5288.159728,10427.563387,229.602036,551.409941,HOLD
14 March 2026,588.612566,24.491642,0.764384,54.382304,0.570724,0.003115,-0.123404,2.020684,57.072361,57.072361,3.424634,-17725.928037,15867.581095,5438.230448,10429.350647,230.131936,705.204669,BUY
15 March 2026,588.735081,24.491642,0.761644,54.328733,0.570854,0.003120,-0.123601,2.017360,57.085425,57.072361,0.000000,-17728.113560,15872.387802,5432.873270,10439.514532,239.038306,712.196899,HOLD
16 March 2026,592.556018,24.491642,0.758904,56.408013,0.582475,0.003088,-0.124688,2.015197,58.247482,57.072361,0.000000,-17730.299352,16088.271911,5640.801290,10447.470621,245.736724,930.266800,HOLD
17 March 2026,593.057648,24.491642,0.756164,56.575701,0.583796,0.003089,-0.124973,2.011829,58.379597,57.072361,0.000000,-17732.485414,16114.715049,5657.570072,10457.144977,254.153254,958.896001,HOLD
18 March 2026,594.456418,24.491642,0.753425,57.269943,0.587887,0.003080,-0.125457,2.008340,58.788729,57.072361,0.000000,-17734.671746,16192.359786,5726.994286,10465.365500,261.115797,1038.727070,HOLD
19 March 2026,593.362417,24.491642,0.750685,56.503339,0.584286,0.003097,-0.125387,2.005022,58.428571,58.428571,1.356210,-18541.582332,16127.735975,5650.333882,10477.402093,271.894254,976.289859,BUY
20 March 2026,585.344474,24.491642,0.747945,51.795543,0.558852,0.003183,-0.123547,1.997544,55.885181,58.428571,0.000000,-18543.868421,15656.972915,5179.554276,10477.418639,270.652510,507.812889,HOLD
21 March 2026,592.651048,24.491642,0.745205,55.837684,0.581618,0.003117,-0.125572,1.998156,58.161762,58.428571,0.000000,-18546.154793,16081.599243,5583.768414,10497.830829,289.806254,934.725589,HOLD
22 March 2026,593.479242,24.491642,0.742466,56.194595,0.583969,0.003114,-0.125938,1.994753,58.396868,58.428571,0.000000,-18548.441446,16127.702803,5619.459451,10508.243352,298.960175,983.115801,HOLD
23 March 2026,594.331048,24.491642,0.739726,56.566933,0.586396,0.003112,-0.126307,1.991258,58.639556,58.428571,0.000000,-18550.728381,16175.185656,5656.693323,10518.492333,307.950400,1032.885590,HOLD
24 March 2026,592.631090,24.491642,0.736986,55.448582,0.580857,0.003136,-0.126097,1.987832,58.085743,58.428571,0.000000,-18553.015598,16073.572314,5544.858197,10528.714116,316.913271,933.559464,HOLD
25 March 2026,599.689274,24.491642,0.734247,59.498179,0.602531,0.003065,-0.127774,1.981933,60.253112,58.428571,0.000000,-18555.303097,16483.684434,5949.817892,10533.866543,320.806631,1345.959084,HOLD
26 March 2026,608.248679,24.491642,0.731507,64.637249,0.628191,0.002968,-0.129368,1.967305,62.819100,58.428571,0.000000,-18557.590878,16981.510466,6463.724940,10517.785526,303.466393,1846.072897,HOLD
27 March 2026,613.385611,24.491642,0.728767,67.773000,0.643161,0.002908,-0.130192,1.953004,64.316113,58.428571,0.000000,-18559.878941,17279.366024,6777.299997,10502.066027,286.487516,2146.216518,HOLD
28 March 2026,622.666485,24.491642,0.726027,73.734523,0.669520,0.002789,-0.131148,1.922523,66.952038,58.428571,0.000000,-18562.167287,17819.345863,7373.452317,10445.893546,229.055503,2688.484703,HOLD
29 March 2026,608.104460,24.491642,0.723288,64.157800,0.627342,0.002988,-0.129909,1.957189,62.734187,62.734187,4.305616,-21182.720264,16966.218910,6415.780026,10550.438884,332.341153,1837.646377,BUY
30 March 2026,599.663572,24.491642,0.720548,58.841552,0.601494,0.003096,-0.128692,1.964639,60.149381,62.734187,0.000000,-21185.331993,16434.074942,5884.155197,10549.919745,330.562171,1308.114138,HOLD
31 March 2026,592.163089,24.491642,0.717808,54.290774,0.577717,0.003185,-0.127253,1.963400,57.771745,62.734187,0.000000,-21187.944044,15960.926175,5429.077423,10531.848753,311.231180,837.577423,HOLD
1 April 2026,586.123402,24.491642,0.715068,50.734238,0.558016,0.003252,-0.125858,1.956356,55.801591,62.734187,0.000000,-21190.556418,15579.418974,5073.423844,10505.995130,284.117403,458.682595,HOLD
2 April 2026,564.912498,24.491642,0.712329,39.524638,0.486802,0.003415,-0.118569,1.901051,48.680170,62.734187,0.000000,-21193.169113,14246.157409,3952.463766,10293.693643,70.555607,-871.966275,HOLD
3 April 2026,562.167362,24.491642,0.709589,38.083721,0.476970,0.003434,-0.117538,1.886056,47.696983,47.696983,-15.037205,-12742.356367,14071.330513,3808.372075,10262.958438,38.559938,-793.893165,SELL
4 April 2026,562.155470,24.491642,0.706849,37.960442,0.476487,0.003440,-0.117683,1.882239,47.648699,47.696983,0.000000,-12743.927439,14069.192264,3796.044151,10273.148113,47.488993,-794.460342,HOLD
5 April 2026,554.220570,24.491642,0.704110,34.174161,0.448576,0.003473,-0.114105,1.839860,44.857640,47.696983,0.000000,-12745.498705,13689.150192,3417.416113,10271.734079,44.814184,-1172.931148,HOLD
6 April 2026,550.967872,24.491642,0.701370,32.620937,0.436752,0.003486,-0.112592,1.817631,43.675152,47.696983,0.000000,-12747.070165,13532.434862,3262.093700,10270.341162,42.160335,-1328.075018,HOLD
