SouPuppy/MA4529/prism/public/data/A_analytic_20d.csv
trade_date,spot,ivol,tau,option_price,delta,gamma,theta,vega,target_qty,current_qty,diff_qty,cash_position,portfolio_value,option_liability,replication_error,realized_pnl,unrealized_pnl,action
5 October 2025,576.821087,24.491642,1.202740,65.481059,0.575002,0.002529,-0.101968,2.478964,57.500209,57.500209,57.500209,-16619.227449,16548.105892,6548.105892,10000.000000,0.000000,0.000000,INIT
6 October 2025,572.791577,24.491642,1.200000,63.083581,0.564522,0.002562,-0.101157,2.470399,56.452215,57.500209,0.000000,-16621.276521,16314.359153,6308.358099,10006.001054,4.768101,-231.697667,HOLD
7 October 2025,582.949090,24.491642,1.197260,68.845243,0.589966,0.002488,-0.103401,2.479708,58.996562,57.500209,0.000000,-16623.325846,16896.368913,6884.524302,10011.844611,9.378553,352.361417,HOLD
8 October 2025,586.523968,24.491642,1.194521,70.866010,0.598625,0.002463,-0.104172,2.478813,59.862482,57.500209,0.000000,-16625.375423,17099.875562,7086.601015,10013.274546,9.575232,557.917644,HOLD
9 October 2025,585.615635,24.491642,1.191781,70.219231,0.596195,0.002473,-0.104089,2.475966,59.619524,57.500209,0.000000,-16627.425254,17045.596403,7021.923106,10023.673297,18.740574,505.688315,HOLD
10 October 2025,578.799136,24.491642,1.189041,66.110382,0.578940,0.002530,-0.102812,2.468433,57.893979,57.500209,0.000000,-16629.475336,16651.596187,6611.038235,10040.557952,34.391668,113.738182,HOLD
11 October 2025,575.178975,24.491642,1.186301,63.929099,0.569508,0.002561,-0.102110,2.461225,56.950777,57.500209,0.000000,-16631.525672,16441.385874,6392.909874,10048.475999,41.076003,-94.421795,HOLD
12 October 2025,560.568589,24.491642,1.183562,55.786801,0.531081,0.002663,-0.098583,2.425569,53.108097,57.500209,0.000000,-16633.576261,15599.235019,5578.680093,10020.554926,11.921064,-934.522062,HOLD
13 October 2025,553.955900,24.491642,1.180822,52.236678,0.513050,0.002705,-0.096795,2.400187,51.305039,57.500209,0.000000,-16635.627102,15216.953150,5223.667756,9993.285394,-16.582486,-1314.753090,HOLD
14 October 2025,556.772728,24.491642,1.178082,53.594918,0.520363,0.002692,-0.097681,2.407740,52.036251,57.500209,0.000000,-16637.678196,15376.870259,5359.491758,10017.378501,6.276452,-1152.784886,HOLD
15 October 2025,555.658554,24.491642,1.175342,52.919416,0.517071,0.002701,-0.097436,2.401057,51.707150,57.500209,0.000000,-16639.729543,15310.753684,5291.941620,10018.812065,6.475694,-1216.850114,HOLD
16 October 2025,556.250169,24.491642,1.172603,53.128152,0.518382,0.002701,-0.097681,2.400459,51.838181,57.500209,0.000000,-16641.781143,15342.720091,5312.815236,10029.904855,16.334011,-1182.832107,HOLD
17 October 2025,553.231759,24.491642,1.169863,51.478959,0.509905,0.002721,-0.096872,2.386441,50.990507,57.500209,0.000000,-16643.832996,15167.109024,5147.895925,10019.213100,4.407630,-1356.391321,HOLD
18 October 2025,553.412067,24.491642,1.167123,51.473981,0.510098,0.002724,-0.096999,2.384393,51.009817,57.500209,0.000000,-16645.885102,15175.424683,5147.398101,10028.026582,11.986334,-1346.023557,HOLD
19 October 2025,552.602258,24.491642,1.164384,50.964999,0.507590,0.002731,-0.096830,2.378440,50.758999,57.500209,0.000000,-16647.937461,15126.808143,5096.499909,10030.308234,13.033056,-1392.587738,HOLD
20 October 2025,548.871462,24.491642,1.161644,48.994618,0.497051,0.002753,-0.095754,2.359964,49.705092,57.500209,0.000000,-16649.990073,14910.233947,4899.461763,10010.772184,-7.738077,-1607.109321,HOLD
21 October 2025,543.518453,24.491642,1.158904,46.279409,0.481913,0.002781,-0.094094,2.331855,48.191338,57.500209,0.000000,-16652.042938,14600.381974,4627.940916,9972.441057,-47.304439,-1914.908430,HOLD
22 October 2025,545.089890,24.491642,1.156164,46.945491,0.485951,0.002777,-0.094680,2.336784,48.595100,57.500209,0.000000,-16654.096056,14688.686797,4694.549099,9994.137698,-26.843186,-1824.550489,HOLD
23 October 2025,544.870273,24.491642,1.153425,46.744193,0.485012,0.002782,-0.094675,2.332873,48.501213,57.500209,0.000000,-16656.149427,14674.005380,4674.419324,9999.586057,-22.630366,-1837.178534,HOLD
24 October 2025,545.888382,24.491642,1.150685,47.144386,0.487516,0.002780,-0.095078,2.334960,48.751554,57.500209,0.000000,-16658.203052,14730.493229,4714.438586,10016.054642,-7.397472,-1778.637061,HOLD
25 October 2025,545.178513,24.491642,1.147945,46.704135,0.485211,0.002787,-0.094914,2.328686,48.521135,48.521135,-8.979074,-11765.058662,14687.621770,4670.413537,10017.208233,-7.479726,-1535.333624,SELL
26 October 2025,553.184221,24.491642,1.145205,50.580016,0.507066,0.002751,-0.097524,2.361312,50.706640,48.521135,0.000000,-11766.509238,15074.617206,5058.001576,10016.615631,-9.308325,-1146.887611,HOLD
27 October 2025,566.934947,24.491642,1.142466,57.708750,0.544090,0.002672,-0.101474,2.402712,54.409027,48.521135,0.000000,-11767.959993,15740.367295,5770.875031,9969.492264,-57.667841,-479.686768,HOLD
28 October 2025,563.155698,24.491642,1.139726,55.571123,0.533675,0.002700,-0.100555,2.389945,53.367484,48.521135,0.000000,-11769.410927,15555.542920,5557.112251,9998.430670,-29.965736,-663.060209,HOLD
29 October 2025,571.316177,24.491642,1.136986,59.912759,0.555241,0.002648,-0.102748,2.406988,55.524122,48.521135,0.000000,-11770.862039,15950.047521,5991.275868,9958.771653,-70.861207,-267.104495,HOLD
30 October 2025,556.691490,24.491642,1.134247,51.980413,0.515506,0.002745,-0.098882,2.363470,51.550636,48.521135,0.000000,-11772.313331,15238.989824,5198.041256,10040.948568,10.079102,-976.710901,HOLD
31 October 2025,548.913898,24.491642,1.131507,47.957956,0.493670,0.002789,-0.096556,2.329100,49.366972,48.521135,0.000000,-11773.764801,14860.160758,4795.795619,10064.365139,32.258914,-1354.088496,HOLD
1 November 2025,554.445289,24.491642,1.128767,50.632844,0.508718,0.002765,-0.098364,2.349455,50.871846,48.521135,0.000000,-11775.216451,15127.098475,5063.284355,10063.814120,30.470984,-1085.699130,HOLD
2 November 2025,557.125645,24.491642,1.126027,51.907096,0.515813,0.002753,-0.099247,2.356657,51.581316,48.521135,0.000000,-11776.668280,15255.700564,5190.709592,10064.990971,30.410771,-955.645212,HOLD
3 November 2025,565.277009,24.491642,1.123288,56.101020,0.537788,0.002707,-0.101630,2.379375,53.778781,48.521135,0.000000,-11778.120287,15649.761985,5610.102047,10039.659938,3.842521,-560.131784,HOLD
4 November 2025,556.967672,24.491642,1.120548,51.627086,0.514784,0.002761,-0.099359,2.350482,51.478385,48.521135,0.000000,-11779.572474,15245.131335,5162.708627,10082.422708,45.367923,-963.310247,HOLD
5 November 2025,554.238772,24.491642,1.117808,50.134019,0.506921,0.002779,-0.098612,2.337358,50.692131,48.521135,0.000000,-11781.024839,15111.269639,5013.401897,10097.867741,59.575435,-1095.719578,HOLD
6 November 2025,549.280380,24.491642,1.115068,47.557697,0.492751,0.002808,-0.097116,2.313573,49.275132,48.521135,0.000000,-11782.477384,14869.230299,4755.769740,10113.460559,73.930579,-1336.306373,HOLD
7 November 2025,553.302527,24.491642,1.112329,49.463837,0.503693,0.002791,-0.098477,2.327934,50.369282,48.521135,0.000000,-11783.930108,15062.936706,4946.383713,10116.552993,75.785186,-1141.147242,HOLD
8 November 2025,550.826994,24.491642,1.109589,48.127764,0.496446,0.002807,-0.097768,2.314670,49.644566,48.521135,0.000000,-11785.383010,14941.368104,4812.776446,10128.591658,86.585872,-1261.262941,HOLD
9 November 2025,541.207850,24.491642,1.106849,43.388396,0.468878,0.002852,-0.094580,2.264614,46.887821,48.521135,0.000000,-11786.836092,14473.183257,4338.839584,10134.343673,91.099755,-1727.994707,HOLD
10 November 2025,541.692616,24.491642,1.104110,43.521241,0.469906,0.002854,-0.094821,2.264285,46.990596,48.521135,0.000000,-11788.289354,14495.251403,4352.124092,10143.127311,98.645108,-1704.473299,HOLD
11 November 2025,538.520768,24.491642,1.101370,41.951433,0.460471,0.002868,-0.093744,2.243573,46.047086,48.521135,0.000000,-11789.742794,14339.896264,4195.143289,10144.752975,99.032335,-1858.374997,HOLD
12 November 2025,546.894952,24.491642,1.098630,45.810985,0.484022,0.002839,-0.096768,2.285026,48.402173,48.521135,0.000000,-11791.196413,14744.767576,4581.098459,10163.669117,116.709888,-1452.050066,HOLD
13 November 2025,545.683265,24.491642,1.095890,45.130196,0.480235,0.002848,-0.096428,2.276150,48.023464,48.521135,0.000000,-11792.650212,14684.521357,4513.019627,10171.501730,123.303758,-1510.842486,HOLD
14 November 2025,544.506757,24.491642,1.093151,44.471112,0.476533,0.002856,-0.096092,2.267259,47.653264,48.521135,0.000000,-11794.104190,14625.981865,4447.111199,10178.870666,129.433798,-1567.928000,HOLD
15 November 2025,549.424579,24.491642,1.090411,46.751266,0.490195,0.002838,-0.097843,2.288137,49.019542,48.521135,0.000000,-11795.558347,14863.146002,4675.126572,10188.019430,137.343514,-1329.309706,HOLD
16 November 2025,557.880613,24.491642,1.087671,50.896782,0.513714,0.002798,-0.100613,2.319762,51.371359,48.521135,0.000000,-11797.012684,15271.988068,5089.678189,10182.309879,130.394763,-919.013304,HOLD
17 November 2025,551.455070,24.491642,1.084932,47.555268,0.495296,0.002836,-0.098668,2.291349,49.529597,48.521135,0.000000,-11798.467200,14958.758897,4755.526838,10203.232059,150.077589,-1230.787959,HOLD
18 November 2025,570.571535,24.491642,1.082192,57.431012,0.548210,0.002724,-0.104358,2.350637,54.821034,48.521135,0.000000,-11799.921895,15884.856796,5743.101169,10141.755627,87.361650,-303.235365,HOLD
19 November 2025,576.367994,24.491642,1.079452,60.548379,0.563642,0.002685,-0.105891,2.358512,56.364207,48.521135,0.000000,-11801.376770,16164.652670,6054.837928,10109.814742,54.181106,-21.984616,HOLD
20 November 2025,588.647142,24.491642,1.076712,67.560863,0.595825,0.002589,-0.108640,2.366135,59.582482,48.521135,0.000000,-11802.831824,16758.995807,6756.086260,10002.909547,-53.963900,573.813575,HOLD
21 November 2025,590.662400,24.491642,1.073973,68.657776,0.600839,0.002576,-0.109126,2.363569,60.083918,48.521135,0.000000,-11804.287057,16855.323202,6865.777598,9989.545604,-68.567809,671.596203,HOLD
22 November 2025,591.337446,24.491642,1.071233,68.954654,0.602391,0.002573,-0.109354,2.360804,60.239138,48.521135,0.000000,-11805.742470,16886.621768,6895.465360,9991.156408,-68.197122,704.350182,HOLD
23 November 2025,594.864314,24.491642,1.068493,70.985112,0.611240,0.002545,-0.110088,2.357099,61.123964,48.521135,0.000000,-11807.198062,17056.293816,7098.511224,9957.782592,-102.811209,875.477823,HOLD
24 November 2025,600.414691,24.491642,1.065753,74.305627,0.625074,0.002498,-0.111096,2.350259,62.507357,48.521135,0.000000,-11808.653834,17324.148653,7430.562701,9893.585952,-168.248273,1144.788431,HOLD
25 November 2025,588.932378,24.491642,1.063014,67.186160,0.595596,0.002605,-0.109210,2.352512,59.559552,48.521135,0.000000,-11810.109785,16765.557845,6718.615970,10046.941875,-16.132926,587.653575,HOLD
26 November 2025,585.094943,24.491642,1.060274,64.811375,0.585326,0.002642,-0.108540,2.348321,58.532629,48.521135,0.000000,-11811.565916,16577.905020,6481.137525,10096.767495,32.451964,401.456880,HOLD
27 November 2025,578.828764,24.491642,1.057534,61.088608,0.568380,0.002696,-0.107257,2.339724,56.837981,48.521135,0.000000,-11813.022226,16272.406578,6108.860831,10163.545747,97.989333,97.414748,HOLD
28 November 2025,576.813946,24.491642,1.054795,59.842080,0.562691,0.002716,-0.106880,2.334119,56.269085,48.521135,0.000000,-11814.478716,16173.188844,5984.208007,10188.980837,122.183388,-0.346496,HOLD
29 November 2025,576.515903,24.491642,1.052055,59.567637,0.561639,0.002722,-0.106907,2.330854,56.163865,48.521135,0.000000,-11815.935385,16157.270771,5956.763714,10200.507056,132.468419,-14.807900,HOLD
30 November 2025,570.690999,24.491642,1.049315,56.237088,0.545394,0.002768,-0.105525,2.317077,54.539355,48.521135,0.000000,-11817.392234,15873.182949,5623.708848,10249.474102,180.194123,-297.438872,HOLD
1 December 2025,559.396263,24.491642,1.046575,50.152886,0.513393,0.002845,-0.102370,2.281760,51.339335,48.521135,0.000000,-11818.849263,15323.692540,5015.288574,10308.403966,237.882493,-845.472253,HOLD
2 December 2025,564.299345,24.491642,1.043836,52.600285,0.526979,0.002819,-0.103935,2.294780,52.697854,48.521135,0.000000,-11820.306471,15560.138406,5260.028471,10300.109935,228.346814,-607.569179,HOLD
3 December 2025,571.092679,24.491642,1.041096,56.139054,0.545710,0.002777,-0.105924,2.309398,54.570994,48.521135,0.000000,-11821.763859,15888.301336,5613.905400,10274.395937,201.391014,-277.948861,HOLD
4 December 2025,572.388141,24.491642,1.038356,56.742013,0.549040,0.002772,-0.106364,2.309277,54.904019,54.904019,6.382884,-15476.708432,15949.701016,5674.201315,10275.499701,201.252825,-215.091614,BUY
5 December 2025,577.558084,24.491642,1.035616,59.509675,0.563028,0.002737,-0.107767,2.315472,56.302839,54.904019,0.000000,-15478.616637,16231.643499,5950.967481,10280.676019,205.187036,68.759075,HOLD
6 December 2025,579.369310,24.491642,1.032877,60.425677,0.567737,0.002726,-0.108303,2.315094,56.773709,54.904019,0.000000,-15480.525077,16329.178653,6042.567693,10286.610960,209.879717,168.202669,HOLD
7 December 2025,584.331503,24.491642,1.030137,63.166823,0.580950,0.002690,-0.109530,2.317135,58.095000,54.904019,0.000000,-15482.433752,16599.714270,6316.682318,10283.031953,205.058296,440.646962,HOLD
8 December 2025,593.143409,24.491642,1.027397,68.278208,0.604134,0.002617,-0.111401,2.316315,60.413406,54.904019,0.000000,-15484.342663,17081.614454,6827.820781,10253.793673,174.577450,924.456056,HOLD
9 December 2025,591.890545,24.491642,1.024658,67.412142,0.600661,0.002632,-0.111279,2.313740,60.066063,54.904019,0.000000,-15486.251810,17010.918014,6741.214229,10269.703785,189.244842,855.668762,HOLD
10 December 2025,586.105278,24.491642,1.021918,63.871309,0.585076,0.002686,-0.110233,2.309754,58.507618,54.904019,0.000000,-15488.161191,16691.374255,6387.130932,10304.243323,222.541508,538.034385,HOLD
11 December 2025,584.286376,24.491642,1.019178,62.701668,0.579957,0.002706,-0.109951,2.305788,57.995713,54.904019,0.000000,-15490.070808,16589.599575,6270.166837,10319.432738,236.487896,438.169322,HOLD
12 December 2025,593.620209,24.491642,1.016438,68.119712,0.604652,0.002628,-0.111935,2.304959,60.465239,54.904019,0.000000,-15491.980661,17100.154667,6811.971185,10288.183482,203.995461,950.634267,HOLD
13 December 2025,602.938356,24.491642,1.013699,73.753234,0.628580,0.002543,-0.113586,2.294891,62.858048,54.904019,0.000000,-15493.890749,17609.848319,7375.323356,10234.524964,149.093610,1462.238007,HOLD
14 December 2025,607.912829,24.491642,1.010959,76.797015,0.640977,0.002497,-0.114389,2.284589,64.097718,54.904019,0.000000,-15495.801072,17881.056532,7679.701518,10201.355015,114.680175,1735.356543,HOLD
15 December 2025,595.796755,24.491642,1.008219,69.104492,0.609825,0.002619,-0.112665,2.295616,60.982518,54.904019,0.000000,-15497.711631,17213.924817,6910.449159,10303.475659,215.557180,1070.135388,HOLD
16 December 2025,604.043498,24.491642,1.005479,74.107692,0.630954,0.002543,-0.114096,2.284996,63.095402,54.904019,0.000000,-15499.622426,17664.793371,7410.769218,10254.024153,164.861881,1522.914735,HOLD
17 December 2025,588.447533,24.491642,1.002740,64.471321,0.589920,0.002694,-0.111496,2.290809,58.992044,54.904019,0.000000,-15501.533456,16806.601154,6447.132116,10359.469038,269.062821,666.633549,HOLD
18 December 2025,594.415507,24.491642,1.000000,67.926901,0.605656,0.002644,-0.112764,2.287717,60.565561,54.904019,0.000000,-15503.444722,17132.355697,6792.690091,10339.665606,248.015288,994.299357,HOLD
19 December 2025,587.369084,24.491642,0.997260,63.613920,0.586591,0.002711,-0.111498,2.284711,58.659078,54.904019,0.000000,-15505.356223,16743.567241,6361.391967,10382.175274,289.280704,607.422403,HOLD
20 December 2025,589.904426,24.491642,0.994521,64.997742,0.593236,0.002693,-0.112133,2.282532,59.323647,54.904019,0.000000,-15507.267960,16880.855937,6499.774233,10381.081704,286.942728,746.622836,HOLD
21 December 2025,585.298465,24.491642,0.991781,62.182804,0.580520,0.002737,-0.111280,2.277861,58.052000,54.904019,0.000000,-15509.179933,16626.058221,6218.280448,10407.777773,312.394237,493.737093,HOLD
22 December 2025,583.219978,24.491642,0.989041,60.871256,0.574584,0.002759,-0.110927,2.273370,57.458369,54.904019,0.000000,-15511.092142,16510.028733,6087.125597,10422.903136,326.274887,379.619814,HOLD
23 December 2025,573.014755,24.491642,0.986301,55.044185,0.545736,0.002844,-0.108486,2.255351,54.573628,54.904019,0.000000,-15513.004586,15947.808515,5504.418542,10443.389973,345.516858,-180.687960,HOLD
24 December 2025,580.140385,24.491642,0.983562,58.894266,0.565564,0.002793,-0.110426,2.264256,56.556374,56.556374,1.652355,-16473.515297,16337.121535,5889.426576,10447.694959,348.576823,210.537740,BUY
25 December 2025,579.719659,24.491642,0.980822,58.546186,0.564144,0.002800,-0.110436,2.260792,56.414358,56.556374,0.000000,-16475.546404,16311.295733,5854.618623,10456.677110,356.313801,186.743044,HOLD
26 December 2025,584.073797,24.491642,0.978082,60.917459,0.576032,0.002769,-0.111576,2.262461,57.603233,56.556374,0.000000,-16477.577761,16555.518595,6091.745920,10463.772675,362.164040,432.997264,HOLD
27 December 2025,597.684103,24.491642,0.975342,68.895815,0.612717,0.002649,-0.114403,2.260206,61.271686,56.556374,0.000000,-16479.609368,17323.236580,6889.581547,10433.655033,330.800917,1202.746856,HOLD
28 December 2025,589.885245,24.491642,0.972603,64.085624,0.591569,0.002726,-0.113061,2.259434,59.156855,56.556374,0.000000,-16481.641226,16880.129583,6408.562419,10471.567164,367.467414,761.671717,HOLD
29 December 2025,592.163947,24.491642,0.969863,65.327118,0.597562,0.002709,-0.113634,2.256601,59.756201,56.556374,0.000000,-16483.673335,17006.972620,6532.711798,10474.260822,368.915284,890.546862,HOLD
30 December 2025,593.634504,24.491642,0.967123,66.094815,0.601347,0.002700,-0.114036,2.253440,60.134733,56.556374,0.000000,-16485.705694,17088.109588,6609.481520,10478.628068,372.036589,973.716190,HOLD
31 December 2025,582.963990,24.491642,0.964384,59.721837,0.571789,0.002799,-0.111898,2.246819,57.178939,56.556374,0.000000,-16487.738303,16482.591391,5972.183701,10510.407690,402.570115,370.230601,HOLD
1 January 2026,587.548767,24.491642,0.961644,62.259659,0.584317,0.002764,-0.113047,2.247056,58.431747,56.556374,0.000000,-16489.771163,16739.856924,6225.965857,10513.891067,404.807244,629.528995,HOLD
2 January 2026,588.596001,24.491642,0.958904,62.759760,0.586996,0.002759,-0.113390,2.244512,58.699575,56.556374,0.000000,-16491.804274,16797.051575,6275.975962,10521.075614,410.745388,688.756757,HOLD
3 January 2026,591.349025,24.491642,0.956164,64.272179,0.594356,0.002738,-0.114077,2.242027,59.435618,56.556374,0.000000,-16493.837636,16950.719235,6427.217893,10523.501342,411.924561,844.457778,HOLD
4 January 2026,596.740247,24.491642,0.953425,67.400872,0.608802,0.002691,-0.115218,2.237553,60.880228,56.556374,0.000000,-16495.871248,17253.593602,6740.087229,10513.506372,400.682881,1149.365757,HOLD
5 January 2026,603.630447,24.491642,0.950685,71.542575,0.626959,0.002626,-0.116468,2.228081,62.695928,56.556374,0.000000,-16497.905111,17641.244464,7154.257466,10486.986998,372.916644,1539.050482,HOLD
6 January 2026,592.412914,24.491642,0.947945,64.562641,0.596675,0.002741,-0.114657,2.233153,59.667545,56.556374,0.000000,-16499.939225,17004.787401,6456.264083,10548.523319,433.205948,904.627533,HOLD
7 January 2026,585.228336,24.491642,0.945205,60.233892,0.576520,0.002810,-0.113253,2.227974,57.652006,56.556374,0.000000,-16501.973589,16596.419349,6023.389225,10573.030123,456.465581,498.293845,HOLD
8 January 2026,584.463479,24.491642,0.942466,59.680622,0.574136,0.002821,-0.113198,2.224404,57.413624,56.556374,0.000000,-16504.008204,16551.127162,5968.062180,10583.064982,465.253115,455.036273,HOLD
9 January 2026,574.103876,24.491642,0.939726,53.775114,0.544190,0.002909,-0.110669,2.206612,54.419009,56.556374,0.000000,-16506.043071,15963.190733,5377.511369,10585.679364,466.620019,-130.865289,HOLD
10 January 2026,571.083925,24.491642,0.936986,52.035123,0.535079,0.002935,-0.109919,2.196814,53.507924,56.556374,0.000000,-16508.078188,15790.358145,5203.512258,10586.845887,466.538910,-301.662759,HOLD
11 January 2026,576.628771,24.491642,0.934247,54.935437,0.550974,0.002899,-0.111593,2.205325,55.097391,56.556374,0.000000,-16510.113556,16101.919142,5493.543697,10608.375445,486.820682,11.933605,HOLD
12 January 2026,574.115351,24.491642,0.931507,53.448824,0.543383,0.002922,-0.111019,2.197476,54.338338,56.556374,0.000000,-16512.149175,15957.733625,5344.882404,10612.851221,490.048518,-130.216293,HOLD
13 January 2026,567.834465,24.491642,0.928767,49.984615,0.524578,0.002971,-0.109275,2.179014,52.457758,52.457758,-4.098617,-14186.849304,15600.473582,4998.461550,10602.012032,477.961236,-450.260801,SELL
14 January 2026,565.478612,24.491642,0.926027,48.648461,0.517239,0.002991,-0.108641,2.168865,51.723900,52.457758,0.000000,-14188.598475,15475.141660,4864.846063,10610.295598,484.996554,-573.843551,HOLD
15 January 2026,568.852268,24.491642,0.923288,50.300667,0.526985,0.002973,-0.109814,2.175620,52.698464,52.457758,0.000000,-14190.347862,15650.366689,5030.066718,10620.299971,493.752525,-396.869135,HOLD
16 January 2026,566.996531,24.491642,0.920548,49.218557,0.521139,0.002990,-0.109348,2.167222,52.113922,52.457758,0.000000,-14192.097465,15551.269294,4921.855721,10629.413574,501.617573,-494.216927,HOLD
17 January 2026,559.662952,24.491642,0.917808,45.370600,0.498697,0.003038,-0.107007,2.138998,49.869654,52.457758,0.000000,-14193.847283,15164.816380,4537.059954,10627.756427,498.711716,-878.920023,HOLD
18 January 2026,550.090727,24.491642,0.915068,40.633386,0.469000,0.003086,-0.103534,2.092943,46.900001,52.457758,0.000000,-14195.597318,14660.928865,4063.338597,10597.590268,467.296694,-1381.057504,HOLD
19 January 2026,541.375183,24.491642,0.912329,36.563412,0.441547,0.003116,-0.100010,2.040745,44.154675,52.457758,0.000000,-14197.347568,14201.980711,3656.341167,10545.639544,414.096953,-1838.255408,HOLD
20 January 2026,542.279366,24.491642,0.909589,36.863481,0.443933,0.003118,-0.100486,2.042859,44.393281,52.457758,0.000000,-14199.098033,14247.661678,3686.348135,10561.313543,428.521781,-1790.823975,HOLD
21 January 2026,541.237059,24.491642,0.906849,36.302385,0.440245,0.003125,-0.100118,2.033090,44.024491,52.457758,0.000000,-14200.848715,14191.233884,3630.238524,10560.995360,426.954272,-1845.501087,HOLD
22 January 2026,554.920775,24.491642,0.904110,42.512232,0.482355,0.003084,-0.105796,2.102938,48.235523,52.457758,0.000000,-14202.599613,14907.300041,4251.223183,10656.076858,520.786291,-1127.684033,HOLD
23 January 2026,549.161160,24.491642,0.901370,39.681752,0.464118,0.003112,-0.103637,2.071572,46.411812,52.457758,0.000000,-14204.350726,14603.412465,3968.175166,10635.237299,498.697099,-1429.820495,HOLD
24 January 2026,542.837432,24.491642,0.898630,36.708115,0.443946,0.003134,-0.101073,2.032614,44.394598,52.457758,0.000000,-14206.102055,14269.932554,3670.811504,10599.121050,461.331062,-1761.549077,HOLD
25 January 2026,538.909986,24.491642,0.895890,34.889359,0.431170,0.003146,-0.099416,2.004587,43.116955,52.457758,0.000000,-14207.853600,14062.156003,3488.935922,10573.220081,434.180152,-1967.574083,HOLD
26 January 2026,535.605760,24.491642,0.893151,33.383921,0.420302,0.003154,-0.097975,1.978947,42.030168,52.457758,0.000000,-14209.605362,13887.071946,3338.392124,10548.679822,408.389797,-2140.906378,HOLD
27 January 2026,544.372878,24.491642,0.890411,37.087855,0.447466,0.003143,-0.102004,2.031489,44.746587,52.457758,0.000000,-14211.357339,14345.223297,3708.785500,10636.437797,494.897522,-1681.003051,HOLD
28 January 2026,529.997045,24.491642,0.887671,30.885469,0.401625,0.003162,-0.095427,1.931216,40.162523,52.457758,0.000000,-14213.109532,13589.347154,3088.546875,10500.800279,358.009600,-2435.127000,HOLD
29 January 2026,529.832908,24.491642,0.884932,30.724209,0.400612,0.003166,-0.095415,1.926371,40.061168,52.457758,0.000000,-14214.861941,13578.984499,3072.420950,10506.563549,362.522312,-2443.737246,HOLD
30 January 2026,529.749556,24.491642,0.882192,30.595421,0.399851,0.003170,-0.095442,1.922128,39.985136,52.457758,0.000000,-14216.614566,13572.859396,3059.542063,10513.317333,368.025383,-2448.109724,HOLD
31 January 2026,522.659689,24.491642,0.879452,27.748290,0.376880,0.003164,-0.091879,1.861523,37.688032,52.457758,0.000000,-14218.367408,13199.188034,2774.828975,10424.359058,277.816242,-2820.028245,HOLD
1 February 2026,528.188275,24.491642,0.876712,29.785548,0.393893,0.003176,-0.094794,1.902798,39.389320,52.457758,0.000000,-14220.120465,13487.452199,2978.554783,10508.897417,361.103580,-2530.011021,HOLD
2 February 2026,531.315353,24.491642,0.873973,30.936422,0.403335,0.003183,-0.096431,1.923120,40.333505,40.333505,-12.124253,-7780.071849,13649.738397,3093.642210,10556.096187,407.051175,-1819.138452,SELL
3 February 2026,526.198629,24.491642,0.871233,28.820441,0.386544,0.003181,-0.093906,1.879635,38.654406,40.333505,0.000000,-7781.031095,13442.403762,2882.044056,10560.359706,410.063365,-2025.513842,HOLD
4 February 2026,528.551274,24.491642,0.868493,29.643503,0.393523,0.003188,-0.095181,1.894668,39.352342,40.333505,0.000000,-7781.990459,13536.334831,2964.350264,10571.984568,420.436743,-1930.623408,HOLD
5 February 2026,528.137093,24.491642,0.865753,29.385784,0.391690,0.003192,-0.095036,1.887740,39.169034,40.333505,0.000000,-7782.949942,13518.669969,2938.578369,10580.091600,427.292138,-1947.328788,HOLD
6 February 2026,526.527557,24.491642,0.863014,28.665240,0.386034,0.003193,-0.094269,1.871197,38.603430,40.333505,0.000000,-7783.909543,13452.792109,2866.524033,10586.268076,432.216822,-2012.247047,HOLD
7 February 2026,526.009056,24.491642,0.860274,28.371481,0.383855,0.003196,-0.094062,1.863274,38.385461,40.333505,0.000000,-7784.869262,13430.919452,2837.148057,10593.771396,438.468195,-2033.159984,HOLD
8 February 2026,533.264632,24.491642,0.857534,31.142980,0.406582,0.003208,-0.097845,1.915794,40.658161,40.333505,0.000000,-7785.829099,13722.602420,3114.298012,10608.304408,451.749106,-1740.517179,HOLD
9 February 2026,543.173920,24.491642,0.854795,35.226742,0.437889,0.003204,-0.102661,1.979126,43.788940,40.333505,0.000000,-7786.789055,14121.318783,3522.674238,10598.644545,440.836988,-1340.840859,HOLD
10 February 2026,553.599359,24.491642,0.852055,39.858398,0.470749,0.003179,-0.107272,2.033152,47.074880,40.333505,0.000000,-7787.749130,14540.853188,3985.839821,10555.013367,395.953400,-920.346381,HOLD
11 February 2026,536.174909,24.491642,0.849315,32.041635,0.414453,0.003220,-0.099521,1.925794,41.445271,40.333505,0.000000,-7788.709322,13837.103847,3204.163527,10632.940320,472.627789,-1623.135529,HOLD
12 February 2026,544.728176,24.491642,0.846575,35.600682,0.441513,0.003215,-0.103650,1.977979,44.151274,40.333505,0.000000,-7789.669633,14181.126795,3560.068238,10621.058558,459.493308,-1278.152270,HOLD
13 February 2026,560.031131,24.491642,0.843836,42.621796,0.489971,0.003165,-0.110149,2.051700,48.997111,40.333505,0.000000,-7790.630063,14797.388152,4262.179630,10535.208521,372.390399,-660.930484,HOLD
14 February 2026,555.129463,24.491642,0.841096,40.149961,0.473993,0.003193,-0.108335,2.026763,47.399346,40.333505,0.000000,-7791.590611,14598.726173,4014.996069,10583.730104,419.658954,-858.631915,HOLD
15 February 2026,553.629587,24.491642,0.838356,39.334848,0.468786,0.003204,-0.107830,2.016098,46.878581,40.333505,0.000000,-7792.551277,14537.270264,3933.484778,10603.785487,438.461155,-919.127157,HOLD
16 February 2026,549.277340,24.491642,0.835616,37.218938,0.454373,0.003223,-0.106080,1.989997,45.437296,40.333505,0.000000,-7793.512062,14360.768105,3721.893759,10638.874346,472.296678,-1094.668532,HOLD
17 February 2026,554.447348,24.491642,0.832877,39.502714,0.470579,0.003210,-0.108392,2.013157,47.057902,40.333505,0.000000,-7794.472965,14568.331729,3950.271391,10618.060338,450.229179,-886.144005,HOLD
18 February 2026,554.314675,24.491642,0.830137,39.331917,0.469738,0.003216,-0.108449,2.009044,46.973766,40.333505,0.000000,-7795.433986,14562.019557,3933.191658,10628.827900,459.743095,-891.495154,HOLD
19 February 2026,556.873360,24.491642,0.827397,40.434788,0.477549,0.003211,-0.109613,2.017600,47.754939,40.333505,0.000000,-7796.395127,14664.259151,4043.478846,10620.780305,450.441701,-788.294421,HOLD
20 February 2026,554.123725,24.491642,0.824658,39.025315,0.468287,0.003227,-0.108595,2.001145,46.828651,40.333505,0.000000,-7797.356385,14552.395439,3902.531484,10649.863956,478.271396,-899.196874,HOLD
21 February 2026,562.864288,24.491642,0.821918,43.129068,0.495951,0.003192,-0.112193,2.035662,49.595060,40.333505,0.000000,-7798.317762,14903.971608,4312.906764,10591.064844,418.218176,-546.659328,HOLD
22 February 2026,565.622366,24.491642,0.819178,44.395785,0.504371,0.003182,-0.113339,2.042207,50.437110,50.437110,10.103605,-13514.104424,15014.253070,4439.578487,10574.674582,400.573650,-435.416371,BUY
23 February 2026,562.444904,24.491642,0.816438,42.697034,0.493853,0.003205,-0.112286,2.027217,49.385274,50.437110,0.000000,-13515.770649,14852.324834,4269.703366,10582.621468,407.266117,-595.678381,HOLD
24 February 2026,563.051963,24.491642,0.813699,42.884842,0.495419,0.003207,-0.112643,2.026104,49.541920,50.437110,0.000000,-13517.437080,14881.276744,4288.484240,10592.792503,416.182579,-565.060041,HOLD
25 February 2026,577.203797,24.491642,0.810959,50.096674,0.539874,0.003118,-0.117603,2.063299,53.987406,50.437110,0.000000,-13519.103716,15593.387717,5009.667394,10583.720323,405.855671,148.717568,HOLD
26 February 2026,583.605655,24.491642,0.808219,53.496909,0.559400,0.003070,-0.119577,2.069875,55.939999,50.437110,0.000000,-13520.770557,15914.612045,5349.690899,10564.921146,385.801612,471.608738,HOLD
27 February 2026,580.523136,24.491642,0.805479,51.668379,0.549609,0.003102,-0.118872,2.062441,54.960934,50.437110,0.000000,-13522.437604,15757.471667,5166.837872,10590.633795,410.259223,316.135408,HOLD
28 February 2026,573.511230,24.491642,0.802740,47.774498,0.527335,0.003163,-0.116871,2.045118,52.733460,50.437110,0.000000,-13524.104857,15402.144131,4777.449756,10624.694376,443.064612,-37.524876,HOLD
1 March 2026,578.837342,24.491642,0.800000,50.509208,0.543775,0.003127,-0.118676,2.052989,54.377519,50.437110,0.000000,-13525.772315,15669.110400,5050.920797,10618.189603,435.304492,231.108851,HOLD
2 March 2026,587.052792,24.491642,0.797260,54.960315,0.568927,0.003061,-0.121084,2.059870,56.892740,50.437110,0.000000,-13527.439979,16081.806281,5496.031516,10585.774765,401.634153,645.472396,HOLD
3 March 2026,583.056960,24.491642,0.794521,52.591403,0.556348,0.003103,-0.120185,2.052639,55.634808,50.437110,0.000000,-13529.107848,15878.600193,5259.140322,10619.459872,434.063603,443.934178,HOLD
4 March 2026,564.915678,24.491642,0.791781,42.902809,0.498397,0.003240,-0.114396,2.005362,49.839654,50.437110,0.000000,-13530.775923,14961.938271,4290.280877,10671.657394,485.005314,-471.059670,HOLD
5 March 2026,568.046114,24.491642,0.789041,44.363232,0.508150,0.003228,-0.115693,2.012579,50.815001,50.437110,0.000000,-13532.444204,15118.160154,4436.323165,10681.836989,493.928943,-313.169506,HOLD
6 March 2026,574.854143,24.491642,0.786301,47.779082,0.529645,0.003187,-0.118177,2.027967,52.964498,50.437110,0.000000,-13534.112690,15459.868968,4777.908152,10681.960817,492.796650,30.207795,HOLD
7 March 2026,578.439555,24.491642,0.783562,49.579121,0.540717,0.003165,-0.119456,2.032052,54.071671,50.437110,0.000000,-13535.781383,15639.038109,4957.912136,10681.125973,490.705530,211.045627,HOLD
8 March 2026,583.505203,24.491642,0.780822,52.237621,0.556365,0.003128,-0.121084,2.036419,55.636462,50.437110,0.000000,-13537.450280,15892.865833,5223.762057,10669.103776,477.426903,466.542249,HOLD
9 March 2026,577.299242,24.491642,0.778082,48.726084,0.536477,0.003185,-0.119407,2.023034,53.647727,50.437110,0.000000,-13539.119384,15578.186011,4872.608360,10705.577651,512.644192,153.531531,HOLD
10 March 2026,580.262983,24.491642,0.775342,50.209629,0.545586,0.003167,-0.120467,2.025042,54.558567,50.437110,0.000000,-13540.788693,15725.999228,5020.962906,10705.036322,510.846123,303.014057,HOLD
11 March 2026,594.378612,24.491642,0.772603,58.098099,0.589171,0.003040,-0.124250,2.031973,58.917072,50.437110,0.000000,-13542.458209,16436.281223,5809.809928,10626.471296,431.024201,1014.965568,HOLD
12 March 2026,590.436558,24.491642,0.769863,55.675843,0.576870,0.003086,-0.123519,2.028274,57.686953,50.437110,0.000000,-13544.127930,16235.785682,5567.584271,10668.201411,471.497266,816.139747,HOLD
13 March 2026,585.745814,24.491642,0.767123,52.881597,0.562021,0.003137,-0.122495,2.021905,56.202137,50.437110,0.000000,-13545.797857,15997.528215,5288.159728,10709.368487,511.407136,579.552207,HOLD
14 March 2026,588.612566,24.491642,0.764384,54.382304,0.570724,0.003115,-0.123404,2.020684,57.072361,57.072361,6.635251,-17453.060365,16140.448767,5438.230448,10702.218319,502.999608,724.142892,BUY
15 March 2026,588.735081,24.491642,0.761644,54.328733,0.570854,0.003120,-0.123601,2.017360,57.085425,57.072361,0.000000,-17455.212245,16145.289117,5432.873270,10712.415847,511.939621,731.135122,HOLD
16 March 2026,592.556018,24.491642,0.758904,56.408013,0.582475,0.003088,-0.124688,2.015197,58.247482,57.072361,0.000000,-17457.364390,16361.206873,5640.801290,10720.405583,518.671686,949.205023,HOLD
17 March 2026,593.057648,24.491642,0.756164,56.575701,0.583796,0.003089,-0.124973,2.011829,58.379597,57.072361,0.000000,-17459.516800,16387.683663,5657.570072,10730.113591,527.121868,977.834224,HOLD
18 March 2026,594.456418,24.491642,0.753425,57.269943,0.587887,0.003080,-0.125457,2.008340,58.788729,57.072361,0.000000,-17461.669476,16465.362056,5726.994286,10738.367770,534.118067,1057.665293,HOLD
19 March 2026,593.362417,24.491642,0.750685,56.503339,0.584286,0.003097,-0.125387,2.005022,58.428571,57.072361,0.000000,-17463.822418,16400.771904,5650.333882,10750.438022,544.930183,995.228082,HOLD
20 March 2026,585.344474,24.491642,0.747945,51.795543,0.558852,0.003183,-0.123547,1.997544,55.885181,57.072361,0.000000,-17465.975624,15941.015741,5179.554276,10761.461466,554.695336,537.625126,HOLD
21 March 2026,592.651048,24.491642,0.745205,55.837684,0.581618,0.003117,-0.125572,1.998156,58.161762,57.072361,0.000000,-17468.129097,16355.865721,5583.768414,10772.097306,564.072731,954.628577,HOLD
22 March 2026,593.479242,24.491642,0.742466,56.194595,0.583969,0.003114,-0.125938,1.994753,58.396868,57.072361,0.000000,-17470.282834,16400.978990,5619.459451,10781.519539,572.236362,1001.895584,HOLD
23 March 2026,594.331048,24.491642,0.739726,56.566933,0.586396,0.003112,-0.126307,1.991258,58.639556,57.072361,0.000000,-17472.436838,16447.439548,5656.693323,10790.746224,580.204291,1050.510146,HOLD
24 March 2026,592.631090,24.491642,0.736986,55.448582,0.580857,0.003136,-0.126097,1.987832,58.085743,57.072361,0.000000,-17474.591106,16348.264654,5544.858197,10803.406456,591.605611,953.489520,HOLD
25 March 2026,599.689274,24.491642,0.734247,59.498179,0.602531,0.003065,-0.127774,1.981933,60.253112,57.072361,0.000000,-17476.745641,16748.937360,5949.817892,10799.119468,586.059556,1356.316761,HOLD
26 March 2026,608.248679,24.491642,0.731507,64.637249,0.628191,0.002968,-0.129368,1.967305,62.819100,57.072361,0.000000,-17478.900441,17235.288023,6463.724940,10771.563083,557.243949,1844.822224,HOLD
27 March 2026,613.385611,24.491642,0.728767,67.773000,0.643161,0.002908,-0.130192,1.953004,64.316113,57.072361,0.000000,-17481.055507,17526.309819,6777.299997,10749.009822,533.431312,2137.999086,HOLD
28 March 2026,622.666485,24.491642,0.726027,73.734523,0.669520,0.002789,-0.131148,1.922523,66.952038,57.072361,0.000000,-17483.210838,18053.835860,7373.452317,10680.383543,463.545499,2667.680458,HOLD
29 March 2026,608.104460,24.491642,0.723288,64.157800,0.627342,0.002988,-0.129909,1.957189,62.734187,57.072361,0.000000,-17485.366435,17220.591100,6415.780026,10804.811073,586.713342,1836.591295,HOLD
30 March 2026,599.663572,24.491642,0.720548,58.841552,0.601494,0.003096,-0.128692,1.964639,60.149381,57.072361,0.000000,-17487.522298,16736.693836,5884.155197,10852.538639,633.181064,1354.849895,HOLD
31 March 2026,592.163089,24.491642,0.717808,54.290774,0.577717,0.003185,-0.127253,1.963400,57.771745,57.072361,0.000000,-17489.678427,16306.467422,5429.077423,10877.389999,656.772427,926.779610,HOLD
1 April 2026,586.123402,24.491642,0.715068,50.734238,0.558016,0.003252,-0.125858,1.956356,55.801591,57.072361,0.000000,-17491.834822,15959.611854,5073.423844,10886.188009,664.310283,582.080436,HOLD
2 April 2026,564.912498,24.491642,0.712329,39.524638,0.486802,0.003415,-0.118569,1.901051,48.680170,57.072361,0.000000,-17493.991482,14746.898775,3952.463766,10794.435009,571.296973,-628.475983,HOLD
3 April 2026,562.167362,24.491642,0.709589,38.083721,0.476970,0.003434,-0.117538,1.886056,47.696983,47.696983,-9.375379,-12225.616427,14588.070453,3808.372075,10779.698378,555.299878,-656.169815,SELL
4 April 2026,562.155470,24.491642,0.706849,37.960442,0.476487,0.003440,-0.117683,1.882239,47.648699,47.696983,0.000000,-12227.123788,14585.995915,3796.044151,10789.951764,564.292644,-656.736992,HOLD
5 April 2026,554.220570,24.491642,0.704110,34.174161,0.448576,0.003473,-0.114105,1.839860,44.857640,47.696983,0.000000,-12228.631334,14206.017563,3417.416113,10788.601450,561.681554,-1035.207798,HOLD
6 April 2026,550.967872,24.491642,0.701370,32.620937,0.436752,0.003486,-0.112592,1.817631,43.675152,47.696983,0.000000,-12230.139067,14049.365960,3262.093700,10787.272259,559.091433,-1190.351668,HOLD
