SouPuppy/MA4529/prism/public/data/B_mc_500.csv
trade_date,spot,ivol,tau,option_price,delta,gamma,theta,vega,target_qty,current_qty,diff_qty,cash_position,portfolio_value,option_liability,replication_error,realized_pnl,unrealized_pnl,action
5 October 2025,576.821087,24.491642,1.202740,69.032828,0.578866,0.002529,-0.101968,2.478964,57.886613,57.886613,57.886613,-16486.935984,16903.282826,6903.282826,10000.000000,-0.000000,0.000000,INIT
6 October 2025,572.791577,24.491642,1.200000,65.859136,0.561576,0.002562,-0.101157,2.470399,56.157565,57.886613,0.000000,-16488.968745,16667.995382,6585.913595,10082.081787,80.848834,-233.254682,HOLD
7 October 2025,582.949090,24.491642,1.197260,70.719791,0.599193,0.002488,-0.103401,2.479708,59.919327,57.886613,0.000000,-16491.001757,17253.946349,7071.979112,10181.967237,179.501179,354.729296,HOLD
8 October 2025,586.523968,24.491642,1.194521,69.032517,0.600479,0.002463,-0.104172,2.478813,60.047852,57.886613,0.000000,-16493.035019,17458.850657,6903.251713,10555.598943,551.899629,561.666867,HOLD
9 October 2025,585.615635,24.491642,1.191781,70.276836,0.591942,0.002473,-0.104089,2.475966,59.194157,57.886613,0.000000,-16495.068533,17404.236832,7027.683605,10376.553228,371.620505,509.086555,HOLD
10 October 2025,578.799136,24.491642,1.189041,63.477784,0.561677,0.002530,-0.102812,2.468433,56.167678,56.167678,-1.718935,-15502.184166,17007.619019,6347.778406,10659.840613,653.674329,111.102370,SELL
11 October 2025,575.178975,24.491642,1.186301,68.479999,0.570009,0.002561,-0.102110,2.461225,57.000912,56.167678,0.000000,-15504.095512,16802.371675,6847.999852,9954.371823,-53.028174,-92.233628,HOLD
12 October 2025,560.568589,24.491642,1.183562,58.981921,0.539564,0.002663,-0.098583,2.425569,53.956382,56.167678,0.000000,-15506.007094,15979.828633,5898.192131,10081.636502,73.002640,-912.865089,HOLD
13 October 2025,553.955900,24.491642,1.180822,54.371492,0.513087,0.002705,-0.096795,2.400187,51.308654,56.167678,0.000000,-15507.918911,15606.497408,5437.149153,10169.348255,159.480375,-1284.284496,HOLD
14 October 2025,556.772728,24.491642,1.178082,52.374792,0.513087,0.002692,-0.097681,2.407740,51.308742,56.167678,0.000000,-15509.830964,15762.800045,5237.479245,10525.320800,514.218751,-1126.069806,HOLD
15 October 2025,555.658554,24.491642,1.175342,61.460978,0.536665,0.002701,-0.097436,2.401057,53.666513,53.666513,-2.501164,-14121.949961,15698.307200,6146.097764,9552.209436,-460.126934,-1135.719390,SELL
16 October 2025,556.250169,24.491642,1.172603,47.439149,0.496614,0.002701,-0.097681,2.400459,49.661411,53.666513,0.000000,-14123.691131,15728.315964,4743.914937,10984.401027,970.830183,-1103.969457,HOLD
17 October 2025,553.231759,24.491642,1.169863,50.191618,0.518755,0.002721,-0.096872,2.386441,51.875473,53.666513,0.000000,-14125.432515,15564.587033,5019.161790,10545.425243,530.619773,-1265.957003,HOLD
18 October 2025,553.412067,24.491642,1.167123,48.288582,0.492568,0.002724,-0.096999,2.384393,49.256811,53.666513,0.000000,-14127.174114,15572.521951,4828.858171,10743.663780,727.623532,-1256.280486,HOLD
19 October 2025,552.602258,24.491642,1.164384,49.258975,0.499217,0.002731,-0.096830,2.378440,49.921741,53.666513,0.000000,-14128.915928,15527.320518,4925.897536,10601.422982,584.147803,-1299.740106,HOLD
20 October 2025,548.871462,24.491642,1.161644,53.871792,0.517291,0.002753,-0.095754,2.359964,51.729064,51.729064,-1.937449,-13067.247518,15325.359646,5387.179152,9938.180494,-80.329767,-1445.807977,SELL
21 October 2025,543.518453,24.491642,1.158904,44.273824,0.462866,0.002781,-0.094094,2.331855,46.286563,51.729064,0.000000,-13068.858648,15046.842396,4427.382403,10619.459993,599.714497,-1722.714096,HOLD
22 October 2025,545.089890,24.491642,1.156164,46.334620,0.473718,0.002777,-0.094680,2.336784,47.371823,51.729064,0.000000,-13070.469976,15126.520019,4633.462016,10493.058003,472.077120,-1641.425145,HOLD
23 October 2025,544.870273,24.491642,1.153425,49.270280,0.502346,0.002782,-0.094675,2.332873,50.234553,51.729064,0.000000,-13072.081503,15113.547891,4927.028040,10186.519852,164.303429,-1652.785746,HOLD
24 October 2025,545.888382,24.491642,1.150685,43.969486,0.475050,0.002780,-0.095078,2.334960,47.505035,51.729064,0.000000,-13073.693229,15164.601984,4396.948616,10767.653368,744.201253,-1600.119927,HOLD
25 October 2025,545.178513,24.491642,1.147945,47.976462,0.501880,0.002787,-0.094914,2.328686,50.188012,50.188012,-1.541052,-12235.156801,15126.269232,4797.646157,10328.623074,303.935115,-1588.077907,SELL
26 October 2025,553.184221,24.491642,1.145205,47.725797,0.504516,0.002751,-0.097524,2.361312,50.451555,50.188012,0.000000,-12236.665338,15526.551238,4772.579695,10753.971543,728.047587,-1186.287364,HOLD
27 October 2025,566.934947,24.491642,1.142466,56.524820,0.538008,0.002672,-0.101474,2.402712,53.800808,50.188012,0.000000,-12238.174061,16215.164129,5652.482036,10562.682093,535.521988,-496.165750,HOLD
28 October 2025,563.155698,24.491642,1.139726,53.664065,0.522423,0.002700,-0.100555,2.389945,52.242287,50.188012,0.000000,-12239.682970,16023.982236,5366.406473,10657.575764,629.179358,-685.838734,HOLD
29 October 2025,571.316177,24.491642,1.136986,56.740337,0.550332,0.002648,-0.102748,2.406988,55.033196,50.188012,0.000000,-12241.192065,16432.031371,5674.033704,10757.997667,728.364807,-276.280504,HOLD
30 October 2025,556.691490,24.491642,1.134247,54.693813,0.526349,0.002745,-0.098882,2.363470,52.634882,52.634882,2.446870,-13604.852823,15696.538128,5469.381312,10227.156816,196.287350,-1010.264466,BUY
31 October 2025,548.913898,24.491642,1.131507,45.545877,0.486031,0.002789,-0.096556,2.329100,48.603057,52.634882,0.000000,-13606.530237,15285.488076,4554.587709,10730.900366,698.794141,-1419.637104,HOLD
1 November 2025,554.445289,24.491642,1.128767,48.386943,0.517212,0.002765,-0.098364,2.349455,51.721210,52.634882,0.000000,-13608.207858,15574.954562,4838.694287,10736.260275,702.917139,-1128.492997,HOLD
2 November 2025,557.125645,24.491642,1.126027,54.637078,0.538280,0.002753,-0.099247,2.356657,53.828000,52.634882,0.000000,-13609.885685,15714.356958,5463.707804,10250.649154,216.068954,-987.412774,HOLD
3 November 2025,565.277009,24.491642,1.123288,56.810671,0.526344,0.002707,-0.101630,2.379375,52.634376,52.634882,0.000000,-13611.563720,16141.724998,5681.067085,10460.657913,424.840496,-558.366699,HOLD
4 November 2025,556.967672,24.491642,1.120548,48.894931,0.481114,0.002761,-0.099359,2.350482,48.111435,48.111435,-4.523447,-11093.828295,15702.685785,4889.493097,10813.192688,776.137903,-910.154738,SELL
5 November 2025,554.238772,24.491642,1.117808,43.870922,0.488880,0.002779,-0.098612,2.337358,48.887966,48.111435,0.000000,-11095.196112,15570.026669,4387.092185,11182.934483,1144.642177,-1041.446038,HOLD
6 November 2025,549.280380,24.491642,1.115068,52.306466,0.529479,0.002808,-0.097116,2.313573,52.947881,48.111435,0.000000,-11096.564097,15330.103342,5230.646596,10099.456746,59.926766,-1280.001379,HOLD
7 November 2025,553.302527,24.491642,1.112329,52.708177,0.511969,0.002791,-0.098477,2.327934,51.196866,48.111435,0.000000,-11097.932251,15522.246445,5270.817711,10251.428734,210.660927,-1086.490123,HOLD
8 November 2025,550.826994,24.491642,1.109589,50.831192,0.500551,0.002807,-0.097768,2.314670,50.055141,48.111435,0.000000,-11099.300574,15401.776650,5083.119164,10318.657486,276.651700,-1205.591595,HOLD
9 November 2025,541.207850,24.491642,1.106849,42.215632,0.464047,0.002852,-0.094580,2.264614,46.404663,46.404663,-1.706772,-10176.950516,14937.617357,4221.563218,10716.054139,672.810221,-1609.195868,SELL
10 November 2025,541.692616,24.491642,1.104110,43.476297,0.470222,0.002854,-0.094821,2.264285,47.022198,46.404663,0.000000,-10178.205286,14958.858001,4347.629735,10611.228265,566.746063,-1586.700456,HOLD
11 November 2025,538.520768,24.491642,1.101370,35.006222,0.440347,0.002868,-0.093744,2.243573,44.034687,46.404663,0.000000,-10179.460211,14810.414508,3500.622172,11309.792336,1264.071696,-1733.889023,HOLD
12 November 2025,546.894952,24.491642,1.098630,52.115303,0.494171,0.002839,-0.096768,2.285026,49.417090,46.404663,0.000000,-10180.715290,15197.760630,5211.530335,9986.230295,-60.728934,-1345.287822,HOLD
13 November 2025,545.683265,24.491642,1.095890,46.025541,0.467412,0.002848,-0.096428,2.276150,46.741152,46.404663,0.000000,-10181.970524,15140.277477,4602.554087,10537.723390,489.525418,-1401.515741,HOLD
14 November 2025,544.506757,24.491642,1.093151,46.347900,0.479551,0.002856,-0.096092,2.267259,47.955102,47.955102,1.550439,-11027.450357,15084.426622,4634.789981,10449.636641,400.199773,-1456.111208,BUY
15 November 2025,549.424579,24.491642,1.090411,51.802737,0.518507,0.002838,-0.097843,2.288137,51.850741,47.955102,0.000000,-11028.809990,15318.901632,5180.273721,10138.627911,87.951995,-1220.276565,HOLD
16 November 2025,557.880613,24.491642,1.087671,55.609115,0.550295,0.002798,-0.100613,2.319762,55.029463,47.955102,0.000000,-11030.169790,15723.051835,5560.911504,10162.140331,110.225215,-814.766562,HOLD
17 November 2025,551.455070,24.491642,1.084932,44.522354,0.476559,0.002836,-0.098668,2.291349,47.655947,47.955102,0.000000,-11031.529757,15413.554285,4452.235396,10961.318888,908.164419,-1122.904144,HOLD
18 November 2025,570.571535,24.491642,1.082192,65.408875,0.573367,0.002724,-0.104358,2.350637,57.336740,47.955102,0.000000,-11032.889893,16328.926183,6540.887525,9788.038658,-266.355318,-206.172110,HOLD
19 November 2025,576.367994,24.491642,1.079452,60.854763,0.567689,0.002685,-0.105891,2.358512,56.768886,56.768886,8.813784,-16114.233106,16605.535639,6085.476307,10520.059332,464.425696,71.797649,BUY
20 November 2025,588.647142,24.491642,1.076712,68.924044,0.602627,0.002589,-0.108640,2.366135,60.262749,56.768886,0.000000,-16116.219915,17300.622366,6892.404400,10408.217966,351.344519,768.871185,HOLD
21 November 2025,590.662400,24.491642,1.073973,69.387084,0.601415,0.002576,-0.109126,2.363569,60.141500,56.768886,0.000000,-16118.206969,17413.039289,6938.708392,10474.330897,416.217484,883.275161,HOLD
22 November 2025,591.337446,24.491642,1.071233,63.248703,0.592341,0.002573,-0.109354,2.360804,59.234134,56.768886,0.000000,-16120.194267,17449.373577,6324.870303,11124.503274,1065.149744,921.596748,HOLD
23 November 2025,594.864314,24.491642,1.068493,69.599557,0.611100,0.002545,-0.110088,2.357099,61.110046,56.768886,0.000000,-16122.181811,17647.602401,6959.955711,10687.646689,627.052888,1121.813115,HOLD
24 November 2025,600.414691,24.491642,1.065753,78.446383,0.627866,0.002498,-0.111096,2.350259,62.786630,62.786630,6.017745,-19737.311943,17960.703346,7844.638252,10116.065094,54.230869,1436.901850,BUY
25 November 2025,588.932378,24.491642,1.063014,68.040710,0.601135,0.002605,-0.109210,2.352512,60.113498,62.786630,0.000000,-19739.745460,17237.334096,6804.070997,10433.263099,370.188298,715.966117,HOLD
26 November 2025,585.094943,24.491642,1.060274,67.978756,0.601121,0.002642,-0.108540,2.348321,60.112121,62.786630,0.000000,-19742.179278,16993.960676,6797.875553,10196.085122,131.769592,475.026514,HOLD
27 November 2025,578.828764,24.491642,1.057534,60.713749,0.571416,0.002696,-0.107257,2.339724,57.141630,62.786630,0.000000,-19744.613395,16598.094278,6071.374851,10526.719427,461.163014,81.594233,HOLD
28 November 2025,576.813946,24.491642,1.054795,60.150435,0.552654,0.002716,-0.106880,2.334119,55.265386,62.786630,0.000000,-19747.047812,16469.156244,6015.043493,10454.112752,387.315303,-44.909383,HOLD
29 November 2025,576.515903,24.491642,1.052055,59.722347,0.568134,0.002722,-0.106907,2.330854,56.813412,56.813412,-5.973219,-16305.827056,16448.008385,5972.234669,10475.773717,407.735079,-57.569783,SELL
30 November 2025,570.690999,24.491642,1.049315,56.490469,0.542253,0.002768,-0.105525,2.317077,54.225316,56.813412,0.000000,-16307.837487,16115.065264,5649.046862,10466.018403,396.738424,-388.502472,HOLD
1 December 2025,559.396263,24.491642,1.046575,45.124014,0.487916,0.002845,-0.102370,2.281760,48.791573,56.813412,0.000000,-16309.848166,15471.362136,4512.401404,10958.960733,888.439259,-1030.194921,HOLD
2 December 2025,564.299345,24.491642,1.043836,53.100150,0.510034,0.002819,-0.103935,2.294780,51.003441,56.813412,0.000000,-16311.859093,15747.911989,5310.015037,10437.896952,366.133831,-751.634142,HOLD
3 December 2025,571.092679,24.491642,1.041096,52.482064,0.547047,0.002777,-0.105924,2.309398,54.704717,56.813412,0.000000,-16313.870269,16131.853343,5248.206439,10883.646904,810.641982,-365.681612,HOLD
4 December 2025,572.388141,24.491642,1.038356,52.377141,0.541680,0.002772,-0.106364,2.309277,54.168020,54.168020,-2.645392,-14801.690941,16203.441489,5237.714095,10965.727394,891.480518,-278.481885,SELL
5 December 2025,577.558084,24.491642,1.035616,59.730260,0.563500,0.002737,-0.107767,2.315472,56.349957,54.168020,0.000000,-14803.515919,16481.662127,5973.026045,10508.636082,433.147099,1.563731,HOLD
6 December 2025,579.369310,24.491642,1.032877,61.721790,0.563255,0.002726,-0.108303,2.315094,56.325476,54.168020,0.000000,-14805.341123,16577.947457,6172.179031,10405.768426,329.037183,99.674265,HOLD
7 December 2025,584.331503,24.491642,1.030137,58.714432,0.565144,0.002690,-0.109530,2.317135,56.514434,54.168020,0.000000,-14807.166551,16844.914153,5871.443201,10973.470953,895.497296,368.466390,HOLD
8 December 2025,593.143409,24.491642,1.027397,65.064348,0.604213,0.002617,-0.111401,2.316315,60.421294,54.168020,0.000000,-14808.992205,17320.412041,6506.434768,10813.977273,734.761050,845.789931,HOLD
9 December 2025,591.890545,24.491642,1.024658,62.996148,0.592379,0.002632,-0.111279,2.313740,59.237855,59.237855,5.069835,-17811.605523,17250.720975,6299.614847,10951.106128,870.647185,777.924744,BUY
10 December 2025,586.105278,24.491642,1.021918,67.480458,0.586383,0.002686,-0.110233,2.309754,58.638335,59.237855,0.000000,-17813.801610,16905.818114,6748.045756,10157.772358,76.070543,435.217970,HOLD
11 December 2025,584.286376,24.491642,1.019178,61.474278,0.572102,0.002706,-0.109951,2.305788,57.210239,59.237855,0.000000,-17815.997967,16795.873868,6147.427849,10648.446019,565.501177,327.470081,HOLD
12 December 2025,593.620209,24.491642,1.016438,62.229369,0.595333,0.002628,-0.111935,2.304959,59.533340,59.237855,0.000000,-17818.194595,17346.593488,6222.936946,11123.656542,1039.468521,880.386329,HOLD
13 December 2025,602.938356,24.491642,1.013699,71.513603,0.613000,0.002543,-0.113586,2.294891,61.299966,59.237855,0.000000,-17820.391494,17896.383653,7151.360260,10745.023393,659.592039,1432.373393,HOLD
14 December 2025,607.912829,24.491642,1.010959,83.125748,0.647894,0.002497,-0.114389,2.284589,64.789363,64.789363,5.551508,-21197.421561,18188.863569,8312.574821,9876.288748,-210.386092,1727.050479,BUY
15 December 2025,595.796755,24.491642,1.008219,69.977722,0.612119,0.002619,-0.112665,2.295616,61.211867,64.789363,0.000000,-21200.035103,17401.257310,6997.772159,10403.485151,315.566672,942.057762,HOLD
16 December 2025,604.043498,24.491642,1.005479,69.051529,0.617478,0.002543,-0.114096,2.284996,61.747834,64.789363,0.000000,-21202.648967,17932.944689,6905.152880,11027.791809,938.629537,1476.359005,HOLD
17 December 2025,588.447533,24.491642,1.002740,64.346071,0.588874,0.002694,-0.111496,2.290809,58.887448,64.789363,0.000000,-21205.263153,16919.877830,6434.607087,10485.270744,394.864526,465.906333,HOLD
18 December 2025,594.415507,24.491642,1.000000,69.788749,0.605687,0.002644,-0.112764,2.287717,60.568673,64.789363,0.000000,-21207.877662,17303.924616,6978.874851,10325.049765,233.399448,852.567627,HOLD
19 December 2025,587.369084,24.491642,0.997260,68.791002,0.599595,0.002711,-0.111498,2.284711,59.959504,59.959504,-4.829859,-18373.582734,16844.776512,6879.100219,9965.676293,-127.218277,366.511144,SELL
20 December 2025,589.904426,24.491642,0.994521,65.949390,0.598096,0.002693,-0.112133,2.282532,59.809580,59.959504,0.000000,-18375.848110,16994.528950,6594.939002,10399.589948,305.450972,518.528958,HOLD
21 December 2025,585.298465,24.491642,0.991781,65.590266,0.584603,0.002737,-0.111280,2.277861,58.460262,59.959504,0.000000,-18378.113765,16716.092187,6559.026563,10157.065624,61.682088,242.357849,HOLD
22 December 2025,583.219978,24.491642,0.989041,60.980544,0.565065,0.002759,-0.110927,2.273370,56.506475,59.959504,0.000000,-18380.379700,16589.201213,6098.054364,10491.146849,394.518600,117.732811,HOLD
23 December 2025,573.014755,24.491642,0.986301,50.599937,0.545051,0.002844,-0.108486,2.255351,54.505077,59.959504,0.000000,-18382.645914,15975.034869,5059.993720,10915.041149,817.168034,-494.167320,HOLD
24 December 2025,580.140385,24.491642,0.983562,56.855836,0.557111,0.002793,-0.110426,2.264256,55.711082,55.711082,-4.248423,-15920.230937,16400.017591,5685.583564,10714.434027,615.315892,-62.176631,SELL
25 December 2025,579.719659,24.491642,0.980822,59.844357,0.562727,0.002800,-0.110436,2.260792,56.272690,55.711082,0.000000,-15922.193826,16374.615642,5984.435675,10390.179967,289.816658,-85.615691,HOLD
26 December 2025,584.073797,24.491642,0.978082,64.532508,0.592174,0.002769,-0.111576,2.262461,59.217366,55.711082,0.000000,-15924.156957,16615.226211,6453.250784,10161.975427,60.366791,156.958009,HOLD
27 December 2025,597.684103,24.491642,0.975342,66.204201,0.610367,0.002649,-0.114403,2.260206,61.036684,55.711082,0.000000,-15926.120330,17371.507741,6620.420063,10751.087678,648.233562,915.202912,HOLD
28 December 2025,589.885245,24.491642,0.972603,70.850306,0.603009,0.002726,-0.113061,2.259434,60.300904,55.711082,0.000000,-15928.083946,16935.061302,7085.030624,9850.030678,-254.069072,480.720089,HOLD
29 December 2025,592.163947,24.491642,0.969863,65.049095,0.596771,0.002709,-0.113634,2.256601,59.677106,59.677106,3.966024,-18278.583950,17060.046420,6504.909455,10555.136965,449.791427,607.669064,BUY
30 December 2025,593.634504,24.491642,0.967123,63.335620,0.596337,0.002700,-0.114036,2.253440,59.633692,59.677106,0.000000,-18280.837613,17145.551295,6333.562022,10811.989273,705.397793,695.427601,HOLD
31 December 2025,582.963990,24.491642,0.964384,67.314386,0.590486,0.002799,-0.111898,2.246819,59.048644,59.677106,0.000000,-18283.091554,16506.511961,6731.438584,9775.073377,-332.764197,58.642209,HOLD
1 January 2026,587.548767,24.491642,0.961644,61.711025,0.580312,0.002764,-0.113047,2.247056,58.031178,59.677106,0.000000,-18285.345773,16777.863993,6171.102468,10606.761526,497.677702,332.248460,HOLD
2 January 2026,588.596001,24.491642,0.958904,64.669867,0.594128,0.002759,-0.113390,2.244512,59.412796,59.677106,0.000000,-18287.600269,16838.105395,6466.986693,10371.118701,260.788476,394.744358,HOLD
3 January 2026,591.349025,24.491642,0.956164,61.670861,0.590238,0.002738,-0.114077,2.242027,59.023756,59.677106,0.000000,-18289.855044,17000.143087,6167.086118,10833.056969,721.480188,559.036825,HOLD
4 January 2026,596.740247,24.491642,0.953425,68.025471,0.607172,0.002691,-0.115218,2.237553,60.717217,59.677106,0.000000,-18292.110097,17319.620567,6802.547111,10517.073456,404.249966,880.769358,HOLD
5 January 2026,603.630447,24.491642,0.950685,71.693145,0.633044,0.002626,-0.116468,2.228081,63.304373,59.677106,0.000000,-18294.365427,17728.552422,7169.314455,10559.237968,445.167613,1291.956544,HOLD
6 January 2026,592.412914,24.491642,0.947945,60.709122,0.587734,0.002741,-0.114657,2.233153,58.773359,59.677106,0.000000,-18296.621036,17056.866964,6070.912192,10985.954772,870.637401,622.526694,HOLD
7 January 2026,585.228336,24.491642,0.945205,58.870827,0.578113,0.002810,-0.113253,2.227974,57.811267,59.677106,0.000000,-18298.876923,16625.856253,5887.082667,10738.773586,622.209044,193.771870,HOLD
8 January 2026,584.463479,24.491642,0.942466,54.380707,0.565342,0.002821,-0.113198,2.224404,56.534198,56.534198,-3.142908,-16464.218327,16577.955602,5438.070732,11139.884870,1022.073004,140.326223,SELL
9 January 2026,574.103876,24.491642,0.939726,54.898190,0.536431,0.002909,-0.110669,2.206612,53.643080,56.534198,0.000000,-16466.248287,15990.253820,5489.819043,10500.434778,381.375433,-445.345598,HOLD
10 January 2026,571.083925,24.491642,0.936986,46.607019,0.516746,0.002935,-0.109919,2.196814,51.674579,56.534198,0.000000,-16468.278498,15817.493112,4660.701887,11156.791225,1036.484247,-616.076097,HOLD
11 January 2026,576.628771,24.491642,0.934247,57.347752,0.548415,0.002899,-0.111593,2.205325,54.841515,56.534198,0.000000,-16470.308959,16128.936050,5734.775192,10394.160858,272.606095,-302.602698,HOLD
12 January 2026,574.115351,24.491642,0.931507,48.579637,0.521569,0.002922,-0.111019,2.197476,52.156869,56.534198,0.000000,-16472.339670,15984.811179,4857.963659,11126.847520,1004.044817,-444.696857,HOLD
13 January 2026,567.834465,24.491642,0.928767,52.088381,0.517357,0.002971,-0.109275,2.179014,51.735715,51.735715,-4.798483,-13749.626813,15627.695333,5208.838060,10418.857274,294.806477,-731.898249,SELL
14 January 2026,565.478612,24.491642,0.926027,51.719936,0.516878,0.002991,-0.108641,2.168865,51.687818,51.735715,0.000000,-13751.322077,15504.118345,5171.993580,10332.124765,206.825721,-853.779973,HOLD
15 January 2026,568.852268,24.491642,0.923288,50.675813,0.524171,0.002973,-0.109814,2.175620,52.417137,51.735715,0.000000,-13753.017550,15676.961365,5067.581252,10609.380113,482.832668,-679.241480,HOLD
16 January 2026,566.996531,24.491642,0.920548,46.569539,0.500424,0.002990,-0.109348,2.167222,50.042381,51.735715,0.000000,-13754.713232,15579.257812,4656.953851,10922.303961,794.507960,-775.249351,HOLD
17 January 2026,559.662952,24.491642,0.917808,47.538660,0.490248,0.003038,-0.107007,2.138998,49.024845,51.735715,0.000000,-13756.409123,15198.153982,4753.865959,10444.288023,315.243313,-1154.657290,HOLD
18 January 2026,550.090727,24.491642,0.915068,41.256478,0.472756,0.003086,-0.103534,2.092943,47.275574,47.275574,-4.460141,-11304.623187,14701.231957,4125.647804,10575.584153,445.290579,-1507.646634,SELL
19 January 2026,541.375183,24.491642,0.912329,38.406045,0.438985,0.003116,-0.100010,2.040745,43.898513,47.275574,0.000000,-11306.016994,14287.805794,3840.604450,10447.201344,315.658753,-1919.678990,HOLD
20 January 2026,542.279366,24.491642,0.909589,32.754719,0.415132,0.003118,-0.100486,2.042859,41.513225,47.275574,0.000000,-11307.410972,14329.157604,3275.471950,11053.685655,920.893892,-1876.933201,HOLD
21 January 2026,541.237059,24.491642,0.906849,35.961363,0.453827,0.003125,-0.100118,2.033090,45.382748,47.275574,0.000000,-11308.805123,14278.487770,3596.136297,10682.351473,548.310386,-1926.208885,HOLD
22 January 2026,554.920775,24.491642,0.904110,47.052372,0.470975,0.003084,-0.105796,2.102938,47.097488,47.275574,0.000000,-11310.199445,14923.998977,4705.237218,10218.761759,83.471192,-1279.303356,HOLD
23 January 2026,549.161160,24.491642,0.901370,39.732540,0.468928,0.003112,-0.103637,2.071572,46.892834,47.275574,0.000000,-11311.593939,14650.315399,3973.253952,10677.061447,540.521247,-1551.592440,HOLD
24 January 2026,542.837432,24.491642,0.898630,33.551780,0.446071,0.003134,-0.101073,2.032614,44.607054,47.275574,0.000000,-11312.988605,14349.962869,3355.177965,10994.784904,856.994916,-1850.550304,HOLD
25 January 2026,538.909986,24.491642,0.895890,33.518057,0.417226,0.003146,-0.099416,2.004587,41.722556,47.275574,0.000000,-11314.383443,14162.895770,3351.805739,10811.090031,672.050102,-2036.222565,HOLD
26 January 2026,535.605760,24.491642,0.893151,34.398319,0.425791,0.003154,-0.097975,1.978947,42.579140,47.275574,0.000000,-11315.778453,14005.291570,3439.831861,10565.459709,425.169684,-2192.431754,HOLD
27 January 2026,544.372878,24.491642,0.890411,32.915109,0.441667,0.003143,-0.102004,2.031489,44.166678,47.275574,0.000000,-11317.173635,14418.366905,3291.510935,11126.855970,985.315695,-1777.961238,HOLD
28 January 2026,529.997045,24.491642,0.887671,40.402255,0.454769,0.003162,-0.095427,1.931216,45.476873,45.476873,-1.798702,-10365.262430,13737.345803,4040.225465,9697.120338,-445.670341,-2364.082765,SELL
29 January 2026,529.832908,24.491642,0.884932,27.132240,0.386382,0.003166,-0.095415,1.926371,38.638172,45.476873,0.000000,-10366.540418,13728.603390,2713.224000,11015.379389,871.338152,-2371.547190,HOLD
30 January 2026,529.749556,24.491642,0.882192,30.323913,0.381623,0.003170,-0.095442,1.922128,38.162343,45.476873,0.000000,-10367.818564,13723.534639,3032.391312,10691.143327,545.851378,-2375.337795,HOLD
31 January 2026,522.659689,24.491642,0.879452,27.253537,0.369932,0.003164,-0.091879,1.861523,36.993186,45.476873,0.000000,-10369.096867,13399.831361,2725.353686,10674.477675,527.934859,-2697.762771,HOLD
1 February 2026,528.188275,24.491642,0.876712,29.739480,0.394829,0.003176,-0.094794,1.902798,39.482941,45.476873,0.000000,-10370.375327,13649.975701,2973.947986,10676.027715,528.233878,-2446.339970,HOLD
2 February 2026,531.315353,24.491642,0.873973,29.455941,0.385499,0.003183,-0.096431,1.923120,38.549913,38.549913,-6.926960,-6691.253828,13790.906786,2945.594073,10845.312713,696.267701,-1953.169067,SELL
3 February 2026,526.198629,24.491642,0.871233,30.078968,0.388280,0.003181,-0.093906,1.879635,38.827998,38.549913,0.000000,-6692.078828,13592.832542,3007.896776,10584.935766,434.639425,-2150.418311,HOLD
4 February 2026,528.551274,24.491642,0.868493,35.657240,0.418980,0.003188,-0.095181,1.894668,41.897961,38.549913,0.000000,-6692.903929,13682.701715,3565.723951,10116.977764,-34.570060,-2059.724036,HOLD
5 February 2026,528.137093,24.491642,0.865753,31.030420,0.401850,0.003192,-0.095036,1.887740,40.184964,38.549913,0.000000,-6693.729133,13665.909862,3103.041995,10562.867868,410.068405,-2075.690686,HOLD
6 February 2026,526.527557,24.491642,0.863014,27.770659,0.390353,0.003193,-0.094269,1.871197,39.035262,38.549913,0.000000,-6694.554438,13603.037054,2777.065917,10825.971137,671.919882,-2137.738188,HOLD
7 February 2026,526.009056,24.491642,0.860274,26.548390,0.348951,0.003196,-0.094062,1.863274,34.895077,34.895077,-3.654836,-4772.902943,13582.223503,2654.839001,10927.384502,772.081301,-1953.156840,SELL
8 February 2026,533.264632,24.491642,0.857534,32.284579,0.400463,0.003208,-0.097845,1.915794,40.046326,34.895077,0.000000,-4773.491419,13834.818906,3228.457904,10606.361002,449.805700,-1699.972960,HOLD
9 February 2026,543.173920,24.491642,0.854795,39.335427,0.476333,0.003204,-0.102661,1.979126,47.633319,34.895077,0.000000,-4774.079968,14180.015729,3933.542653,10246.473075,88.665518,-1354.187589,HOLD
10 February 2026,553.599359,24.491642,0.852055,37.076249,0.454986,0.003179,-0.107272,2.033152,45.498644,34.895077,0.000000,-4774.668589,14543.223590,3707.624886,10835.598704,676.538738,-990.391106,HOLD
11 February 2026,536.174909,24.491642,0.849315,26.867761,0.371079,0.003220,-0.099521,1.925794,37.107874,34.895077,0.000000,-4775.257283,13934.607363,2686.776123,11247.831240,1087.518709,-1598.418639,HOLD
12 February 2026,544.728176,24.491642,0.846575,37.987117,0.453563,0.003215,-0.103650,1.977979,45.356258,45.356258,10.461181,-10474.346277,14232.485527,3798.711713,10433.773815,272.208565,-1299.951708,BUY
13 February 2026,560.031131,24.491642,0.843836,42.228861,0.492110,0.003165,-0.110149,2.051700,49.210991,45.356258,0.000000,-10475.637715,14925.278844,4222.886132,10702.392712,539.574590,-605.866953,HOLD
14 February 2026,555.129463,24.491642,0.841096,42.608352,0.482621,0.003193,-0.108335,2.026763,48.262099,45.356258,0.000000,-10476.929311,14701.665949,4260.835208,10440.830741,276.759592,-828.188252,HOLD
15 February 2026,553.629587,24.491642,0.838356,37.058078,0.478128,0.003204,-0.107830,2.016098,47.812795,45.356258,0.000000,-10478.221067,14632.345445,3705.807758,10926.537687,761.213355,-896.217000,HOLD
16 February 2026,549.277340,24.491642,0.835616,36.669019,0.472843,0.003223,-0.106080,1.989997,47.284297,45.356258,0.000000,-10479.512982,14433.651892,3666.901902,10766.749989,600.172321,-1093.618639,HOLD
17 February 2026,554.447348,24.491642,0.832877,39.711946,0.461464,0.003210,-0.108392,2.013157,46.146350,45.356258,0.000000,-10480.805057,14666.852018,3971.194627,10695.657391,527.826232,-859.126438,HOLD
18 February 2026,554.314675,24.491642,0.830137,40.965402,0.476396,0.003216,-0.108449,2.009044,47.639604,45.356258,0.000000,-10482.097290,14659.542253,4096.540234,10563.002019,393.917215,-865.143969,HOLD
19 February 2026,556.873360,24.491642,0.827397,41.386106,0.487469,0.003211,-0.109613,2.017600,48.746879,45.356258,0.000000,-10483.389683,14774.302238,4138.610641,10635.691597,465.352992,-749.091591,HOLD
20 February 2026,554.123725,24.491642,0.824658,36.295328,0.447365,0.003227,-0.108595,2.001145,44.736474,45.356258,0.000000,-10484.682236,14648.296489,3629.532792,11018.763697,847.171138,-873.804788,HOLD
21 February 2026,562.864288,24.491642,0.821918,37.540955,0.469386,0.003192,-0.112193,2.035662,46.938612,45.356258,0.000000,-10485.974947,15043.443017,3754.095495,11289.347522,1116.500853,-477.365548,HOLD
22 February 2026,565.622366,24.491642,0.819178,44.104723,0.511468,0.003182,-0.113339,2.042207,51.146761,51.146761,5.790502,-13762.505535,15167.246251,4410.472328,10756.773923,582.672991,-352.269443,BUY
23 February 2026,562.444904,24.491642,0.816438,44.666053,0.527748,0.003205,-0.112286,2.027217,52.774832,51.146761,0.000000,-13764.202387,15003.032500,4466.605257,10536.427243,361.071892,-514.786342,HOLD
24 February 2026,563.051963,24.491642,0.813699,42.527258,0.476180,0.003207,-0.112643,2.026104,47.617982,51.146761,0.000000,-13765.899448,15032.384580,4252.725826,10779.658754,603.048830,-483.737201,HOLD
25 February 2026,577.203797,24.491642,0.810959,53.094862,0.557027,0.003118,-0.117603,2.063299,55.702737,51.146761,0.000000,-13767.596719,15754.507777,5309.486164,10445.021614,267.156962,240.083267,HOLD
26 February 2026,583.605655,24.491642,0.808219,55.974978,0.563840,0.003070,-0.119577,2.069875,56.383978,51.146761,0.000000,-13769.294198,16080.244549,5597.497818,10482.746732,303.627197,567.517518,HOLD
27 February 2026,580.523136,24.491642,0.805479,55.716310,0.560466,0.003102,-0.118872,2.062441,56.046559,56.046559,4.899798,-16615.437942,15920.886019,5571.631003,10349.255016,168.880444,409.856676,BUY
28 February 2026,573.511230,24.491642,0.802740,46.837087,0.509513,0.003163,-0.116871,2.045118,50.951282,56.046559,0.000000,-16617.486546,15525.844203,4683.708690,10842.135513,660.505749,16.863466,HOLD
1 March 2026,578.837342,24.491642,0.800000,51.633581,0.545160,0.003127,-0.118676,2.052989,54.516035,56.046559,0.000000,-16619.535404,15822.305627,5163.358137,10658.947490,476.062379,315.373747,HOLD
2 March 2026,587.052792,24.491642,0.797260,55.900538,0.572464,0.003061,-0.121084,2.059870,57.246405,56.046559,0.000000,-16621.584514,16280.704206,5590.053765,10690.650441,506.509829,775.821436,HOLD
3 March 2026,583.056960,24.491642,0.794521,55.186848,0.557350,0.003103,-0.120185,2.052639,55.734998,56.046559,0.000000,-16623.633877,16054.702210,5518.684766,10536.017444,350.621176,551.868803,HOLD
4 March 2026,564.915678,24.491642,0.791781,44.193335,0.516899,0.003240,-0.114396,2.005362,51.689945,51.689945,-4.356614,-14164.563984,15035.896157,4419.333477,10616.562680,429.910600,-428.750966,SELL
5 March 2026,568.046114,24.491642,0.789041,40.969652,0.496197,0.003228,-0.115693,2.012579,49.619675,51.689945,0.000000,-14166.310408,15195.961817,4096.965227,11098.996589,911.088543,-266.938882,HOLD
6 March 2026,574.854143,24.491642,0.786301,47.277836,0.537614,0.003187,-0.118177,2.027967,53.761394,51.689945,0.000000,-14168.057047,15546.121812,4727.783624,10818.338188,629.174021,84.967753,HOLD
7 March 2026,578.439555,24.491642,0.783562,49.663107,0.530450,0.003165,-0.119456,2.032052,53.045032,51.689945,0.000000,-14169.803902,15729.704720,4966.310716,10763.394003,572.973561,270.297514,HOLD
8 March 2026,583.505203,24.491642,0.780822,58.850043,0.557528,0.003128,-0.121084,2.036419,55.752825,51.689945,0.000000,-14171.550972,15989.800690,5885.004336,10104.796354,-86.880519,532.140555,HOLD
9 March 2026,577.299242,24.491642,0.778082,50.130673,0.540446,0.003185,-0.119407,2.023034,54.044636,54.044636,2.354691,-15532.659832,15667.267644,5013.067314,10654.200330,461.266871,211.354794,BUY
10 March 2026,580.262983,24.491642,0.775342,52.474964,0.547773,0.003167,-0.120467,2.025042,54.777303,54.044636,0.000000,-15534.574936,15825.526840,5247.496363,10578.030477,383.840277,371.529093,HOLD
11 March 2026,594.378612,24.491642,0.772603,56.570166,0.584608,0.003040,-0.124250,2.031973,58.460760,54.044636,0.000000,-15536.490276,16586.485509,5657.016595,10929.468915,734.021820,1134.403102,HOLD
12 March 2026,590.436558,24.491642,0.769863,53.670969,0.564029,0.003086,-0.123519,2.028274,56.402933,54.044636,0.000000,-15538.405851,16371.523049,5367.096937,11004.426112,807.721967,921.356218,HOLD
13 March 2026,585.745814,24.491642,0.767123,56.394632,0.571276,0.003137,-0.122495,2.021905,57.127571,54.044636,0.000000,-15540.321663,16116.097718,5639.463227,10476.634492,278.673141,667.846699,HOLD
14 March 2026,588.612566,24.491642,0.764384,53.796890,0.558229,0.003115,-0.123404,2.020684,55.822907,55.822907,1.778271,-16588.950157,16269.114238,5379.689038,10889.425200,690.206489,822.779267,BUY
15 March 2026,588.735081,24.491642,0.761644,52.140307,0.569144,0.003120,-0.123601,2.017360,56.914379,55.822907,0.000000,-16590.995496,16273.908051,5214.030709,11059.877343,859.401116,829.618420,HOLD
16 March 2026,592.556018,24.491642,0.758904,51.734345,0.576590,0.003088,-0.124688,2.015197,57.659039,55.822907,0.000000,-16593.041087,16485.158273,5173.434543,11311.723730,1109.989833,1042.914233,HOLD
17 March 2026,593.057648,24.491642,0.756164,59.047351,0.588494,0.003089,-0.124973,2.011829,58.849398,55.822907,0.000000,-16595.086930,16511.114867,5904.735083,10606.379784,403.388061,1070.916670,HOLD
18 March 2026,594.456418,24.491642,0.753425,55.050748,0.584349,0.003080,-0.125457,2.008340,58.434898,55.822907,0.000000,-16597.133026,16587.152141,5505.074830,11082.077311,877.827608,1149.000039,HOLD
19 March 2026,593.362417,24.491642,0.750685,50.776505,0.574373,0.003097,-0.125387,2.005022,57.437328,57.437328,1.614422,-17557.116420,16524.035487,5077.650532,11446.384955,1240.877116,1087.929733,BUY
20 March 2026,585.344474,24.491642,0.747945,52.758031,0.571812,0.003183,-0.123547,1.997544,57.181171,57.437328,0.000000,-17559.281129,16061.341538,5275.803111,10785.538427,578.772297,627.400494,HOLD
21 March 2026,592.651048,24.491642,0.745205,55.095497,0.574639,0.003117,-0.125572,1.998156,57.463887,57.437328,0.000000,-17561.446105,16478.846670,5509.549705,10969.296965,761.272389,1047.070603,HOLD
22 March 2026,593.479242,24.491642,0.742466,59.403040,0.588977,0.003114,-0.125938,1.994753,58.897653,57.437328,0.000000,-17563.611349,16524.250697,5940.303950,10583.946747,374.663570,1094.639873,HOLD
23 March 2026,594.331048,24.491642,0.739726,49.133778,0.574820,0.003112,-0.126307,1.991258,57.481985,57.437328,0.000000,-17565.776859,16571.010629,4913.377815,11657.632814,1447.090880,1143.565315,HOLD
24 March 2026,592.631090,24.491642,0.736986,54.368681,0.575569,0.003136,-0.126097,1.987832,57.556881,57.437328,0.000000,-17567.942636,16471.203798,5436.868091,11034.335708,822.534863,1045.924261,HOLD
25 March 2026,599.689274,24.491642,0.734247,60.095895,0.601636,0.003065,-0.127774,1.981933,60.163578,57.437328,0.000000,-17570.108680,16874.440997,6009.589534,10864.851463,651.791551,1451.327505,HOLD
26 March 2026,608.248679,24.491642,0.731507,63.105622,0.643994,0.002968,-0.129368,1.967305,64.399437,57.437328,0.000000,-17572.274992,17363.904048,6310.562167,11053.341881,839.022747,1942.956867,HOLD
27 March 2026,613.385611,24.491642,0.728767,75.959849,0.650157,0.002908,-0.130192,1.953004,65.015715,57.437328,0.000000,-17574.441570,17656.789142,7595.984885,10060.804257,-154.774254,2238.008539,HOLD
28 March 2026,622.666485,24.491642,0.726027,74.441590,0.680993,0.002789,-0.131148,1.922523,68.099286,57.437328,0.000000,-17576.608416,18187.690879,7444.159002,10743.531877,526.693834,2771.077122,HOLD
29 March 2026,608.104460,24.491642,0.723288,64.169586,0.617444,0.002988,-0.129909,1.957189,61.744438,61.744438,4.307110,-20197.948100,17349.119948,6416.958636,10932.161312,714.063581,1934.673303,BUY
30 March 2026,599.663572,24.491642,0.720548,60.546770,0.608534,0.003096,-0.128692,1.964639,60.853448,61.744438,0.000000,-20200.438411,16825.451762,6054.676981,10770.774781,551.417207,1413.495429,HOLD
31 March 2026,592.163089,24.491642,0.717808,55.270644,0.581889,0.003185,-0.127253,1.963400,58.188904,61.744438,0.000000,-20202.929030,16359.848028,5527.064379,10832.783649,612.166076,950.382314,HOLD
1 April 2026,586.123402,24.491642,0.715068,54.213224,0.566317,0.003252,-0.125858,1.956356,56.631667,61.744438,0.000000,-20205.419955,15984.440052,5421.322403,10563.117649,341.239922,577.465263,HOLD
2 April 2026,564.912498,24.491642,0.712329,39.527854,0.477299,0.003415,-0.118569,1.901051,47.729942,61.744438,0.000000,-20207.911188,14672.293433,3952.785445,10719.507988,496.369952,-732.190123,HOLD
3 April 2026,562.167362,24.491642,0.709589,40.077847,0.493064,0.003434,-0.117538,1.886056,49.306402,49.306402,-12.438036,-13218.144739,14500.305012,4007.784659,10492.520353,268.121853,-720.047718,SELL
4 April 2026,562.155470,24.491642,0.706849,36.541211,0.464089,0.003440,-0.117683,1.882239,46.408933,49.306402,0.000000,-13219.774473,14498.088963,3654.121076,10843.967887,618.308766,-720.634033,HOLD
5 April 2026,554.220570,24.491642,0.704110,32.547259,0.444698,0.003473,-0.114105,1.839860,44.469822,49.306402,0.000000,-13221.404409,14105.217641,3254.725931,10850.491710,623.571814,-1111.875419,HOLD
6 April 2026,550.967872,24.491642,0.701370,31.080728,0.425717,0.003486,-0.112592,1.817631,42.571681,49.306402,0.000000,-13223.034546,13943.208680,3108.072764,10835.135916,606.955089,-1272.254244,HOLD
