SouPuppy/MA4529/data/A_analytic_20d.csv
trade_date,spot,ivol,tau,option_price,delta,gamma,theta,vega,target_qty,current_qty,diff_qty,cash_position,portfolio_value,option_liability,replication_error,realized_pnl,unrealized_pnl,action
5 October 2025,576.821087,24.491642,1.202740,65.481059,0.575002,0.002529,-0.101968,2.478964,57.500209,57.500209,57.500209,-26619.227449,6548.105892,6548.105892,0.000000,0.000000,0.000000,BUY
6 October 2025,572.791577,24.491642,1.200000,63.083581,0.564522,0.002562,-0.101157,2.470399,56.452215,0.000000,56.452215,-26619.227449,-26619.227449,6308.358099,-32927.585548,0.000000,0.000000,HOLD
7 October 2025,582.949090,24.491642,1.197260,68.845243,0.589966,0.002488,-0.103401,2.479708,58.996562,0.000000,58.996562,-26619.227449,-26619.227449,6884.524302,-33503.751751,0.000000,0.000000,HOLD
8 October 2025,586.523968,24.491642,1.194521,70.866010,0.598625,0.002463,-0.104172,2.478813,59.862482,0.000000,59.862482,-26619.227449,-26619.227449,7086.601015,-33705.828464,0.000000,0.000000,HOLD
9 October 2025,585.615635,24.491642,1.191781,70.219231,0.596195,0.002473,-0.104089,2.475966,59.619524,0.000000,59.619524,-26619.227449,-26619.227449,7021.923106,-33641.150554,0.000000,0.000000,HOLD
10 October 2025,578.799136,24.491642,1.189041,66.110382,0.578940,0.002530,-0.102812,2.468433,57.893979,0.000000,57.893979,-26619.227449,-26619.227449,6611.038235,-33230.265684,0.000000,0.000000,HOLD
11 October 2025,575.178975,24.491642,1.186301,63.929099,0.569508,0.002561,-0.102110,2.461225,56.950777,0.000000,56.950777,-26619.227449,-26619.227449,6392.909874,-33012.137323,0.000000,0.000000,HOLD
12 October 2025,560.568589,24.491642,1.183562,55.786801,0.531081,0.002663,-0.098583,2.425569,53.108097,0.000000,53.108097,-26619.227449,-26619.227449,5578.680093,-32197.907542,0.000000,0.000000,HOLD
13 October 2025,553.955900,24.491642,1.180822,52.236678,0.513050,0.002705,-0.096795,2.400187,51.305039,0.000000,51.305039,-26619.227449,-26619.227449,5223.667756,-31842.895205,0.000000,0.000000,HOLD
14 October 2025,556.772728,24.491642,1.178082,53.594918,0.520363,0.002692,-0.097681,2.407740,52.036251,0.000000,52.036251,-26619.227449,-26619.227449,5359.491758,-31978.719207,0.000000,0.000000,HOLD
15 October 2025,555.658554,24.491642,1.175342,52.919416,0.517071,0.002701,-0.097436,2.401057,51.707150,0.000000,51.707150,-26619.227449,-26619.227449,5291.941620,-31911.169069,0.000000,0.000000,HOLD
16 October 2025,556.250169,24.491642,1.172603,53.128152,0.518382,0.002701,-0.097681,2.400459,51.838181,0.000000,51.838181,-26619.227449,-26619.227449,5312.815236,-31932.042685,0.000000,0.000000,HOLD
17 October 2025,553.231759,24.491642,1.169863,51.478959,0.509905,0.002721,-0.096872,2.386441,50.990507,0.000000,50.990507,-26619.227449,-26619.227449,5147.895925,-31767.123374,0.000000,0.000000,HOLD
18 October 2025,553.412067,24.491642,1.167123,51.473981,0.510098,0.002724,-0.096999,2.384393,51.009817,0.000000,51.009817,-26619.227449,-26619.227449,5147.398101,-31766.625550,0.000000,0.000000,HOLD
19 October 2025,552.602258,24.491642,1.164384,50.964999,0.507590,0.002731,-0.096830,2.378440,50.758999,0.000000,50.758999,-26619.227449,-26619.227449,5096.499909,-31715.727358,0.000000,0.000000,HOLD
20 October 2025,548.871462,24.491642,1.161644,48.994618,0.497051,0.002753,-0.095754,2.359964,49.705092,0.000000,49.705092,-26619.227449,-26619.227449,4899.461763,-31518.689212,0.000000,0.000000,HOLD
21 October 2025,543.518453,24.491642,1.158904,46.279409,0.481913,0.002781,-0.094094,2.331855,48.191338,0.000000,48.191338,-26619.227449,-26619.227449,4627.940916,-31247.168365,0.000000,0.000000,HOLD
22 October 2025,545.089890,24.491642,1.156164,46.945491,0.485951,0.002777,-0.094680,2.336784,48.595100,0.000000,48.595100,-26619.227449,-26619.227449,4694.549099,-31313.776548,0.000000,0.000000,HOLD
23 October 2025,544.870273,24.491642,1.153425,46.744193,0.485012,0.002782,-0.094675,2.332873,48.501213,0.000000,48.501213,-26619.227449,-26619.227449,4674.419324,-31293.646773,0.000000,0.000000,HOLD
24 October 2025,545.888382,24.491642,1.150685,47.144386,0.487516,0.002780,-0.095078,2.334960,48.751554,0.000000,48.751554,-26619.227449,-26619.227449,4714.438586,-31333.666035,0.000000,0.000000,HOLD
25 October 2025,545.178513,24.491642,1.147945,46.704135,0.485211,0.002787,-0.094914,2.328686,48.521135,48.521135,48.521135,-53071.907881,-26619.227449,4670.413537,-31289.640986,0.000000,0.000000,BUY
26 October 2025,553.184221,24.491642,1.145205,50.580016,0.507066,0.002751,-0.097524,2.361312,50.706640,0.000000,50.706640,-53071.907881,-53071.907881,5058.001576,-58129.909456,0.000000,0.000000,HOLD
27 October 2025,566.934947,24.491642,1.142466,57.708750,0.544090,0.002672,-0.101474,2.402712,54.409027,0.000000,54.409027,-53071.907881,-53071.907881,5770.875031,-58842.782912,0.000000,0.000000,HOLD
28 October 2025,563.155698,24.491642,1.139726,55.571123,0.533675,0.002700,-0.100555,2.389945,53.367484,0.000000,53.367484,-53071.907881,-53071.907881,5557.112251,-58629.020131,0.000000,0.000000,HOLD
29 October 2025,571.316177,24.491642,1.136986,59.912759,0.555241,0.002648,-0.102748,2.406988,55.524122,0.000000,55.524122,-53071.907881,-53071.907881,5991.275868,-59063.183749,0.000000,0.000000,HOLD
30 October 2025,556.691490,24.491642,1.134247,51.980413,0.515506,0.002745,-0.098882,2.363470,51.550636,0.000000,51.550636,-53071.907881,-53071.907881,5198.041256,-58269.949137,0.000000,0.000000,HOLD
31 October 2025,548.913898,24.491642,1.131507,47.957956,0.493670,0.002789,-0.096556,2.329100,49.366972,0.000000,49.366972,-53071.907881,-53071.907881,4795.795619,-57867.703500,0.000000,0.000000,HOLD
1 November 2025,554.445289,24.491642,1.128767,50.632844,0.508718,0.002765,-0.098364,2.349455,50.871846,0.000000,50.871846,-53071.907881,-53071.907881,5063.284355,-58135.192235,0.000000,0.000000,HOLD
2 November 2025,557.125645,24.491642,1.126027,51.907096,0.515813,0.002753,-0.099247,2.356657,51.581316,0.000000,51.581316,-53071.907881,-53071.907881,5190.709592,-58262.617473,0.000000,0.000000,HOLD
3 November 2025,565.277009,24.491642,1.123288,56.101020,0.537788,0.002707,-0.101630,2.379375,53.778781,0.000000,53.778781,-53071.907881,-53071.907881,5610.102047,-58682.009928,0.000000,0.000000,HOLD
4 November 2025,556.967672,24.491642,1.120548,51.627086,0.514784,0.002761,-0.099359,2.350482,51.478385,0.000000,51.478385,-53071.907881,-53071.907881,5162.708627,-58234.616508,0.000000,0.000000,HOLD
5 November 2025,554.238772,24.491642,1.117808,50.134019,0.506921,0.002779,-0.098612,2.337358,50.692131,0.000000,50.692131,-53071.907881,-53071.907881,5013.401897,-58085.309778,0.000000,0.000000,HOLD
6 November 2025,549.280380,24.491642,1.115068,47.557697,0.492751,0.002808,-0.097116,2.313573,49.275132,0.000000,49.275132,-53071.907881,-53071.907881,4755.769740,-57827.677620,0.000000,0.000000,HOLD
7 November 2025,553.302527,24.491642,1.112329,49.463837,0.503693,0.002791,-0.098477,2.327934,50.369282,0.000000,50.369282,-53071.907881,-53071.907881,4946.383713,-58018.291593,0.000000,0.000000,HOLD
8 November 2025,550.826994,24.491642,1.109589,48.127764,0.496446,0.002807,-0.097768,2.314670,49.644566,0.000000,49.644566,-53071.907881,-53071.907881,4812.776446,-57884.684326,0.000000,0.000000,HOLD
9 November 2025,541.207850,24.491642,1.106849,43.388396,0.468878,0.002852,-0.094580,2.264614,46.887821,0.000000,46.887821,-53071.907881,-53071.907881,4338.839584,-57410.747464,0.000000,0.000000,HOLD
10 November 2025,541.692616,24.491642,1.104110,43.521241,0.469906,0.002854,-0.094821,2.264285,46.990596,0.000000,46.990596,-53071.907881,-53071.907881,4352.124092,-57424.031972,0.000000,0.000000,HOLD
11 November 2025,538.520768,24.491642,1.101370,41.951433,0.460471,0.002868,-0.093744,2.243573,46.047086,0.000000,46.047086,-53071.907881,-53071.907881,4195.143289,-57267.051170,0.000000,0.000000,HOLD
12 November 2025,546.894952,24.491642,1.098630,45.810985,0.484022,0.002839,-0.096768,2.285026,48.402173,0.000000,48.402173,-53071.907881,-53071.907881,4581.098459,-57653.006340,0.000000,0.000000,HOLD
13 November 2025,545.683265,24.491642,1.095890,45.130196,0.480235,0.002848,-0.096428,2.276150,48.023464,0.000000,48.023464,-53071.907881,-53071.907881,4513.019627,-57584.927508,0.000000,0.000000,HOLD
14 November 2025,544.506757,24.491642,1.093151,44.471112,0.476533,0.002856,-0.096092,2.267259,47.653264,47.653264,47.653264,-79019.432095,-53071.907881,4447.111199,-57519.019080,0.000000,0.000000,BUY
15 November 2025,549.424579,24.491642,1.090411,46.751266,0.490195,0.002838,-0.097843,2.288137,49.019542,0.000000,49.019542,-79019.432095,-79019.432095,4675.126572,-83694.558668,0.000000,0.000000,HOLD
16 November 2025,557.880613,24.491642,1.087671,50.896782,0.513714,0.002798,-0.100613,2.319762,51.371359,0.000000,51.371359,-79019.432095,-79019.432095,5089.678189,-84109.110284,0.000000,0.000000,HOLD
17 November 2025,551.455070,24.491642,1.084932,47.555268,0.495296,0.002836,-0.098668,2.291349,49.529597,0.000000,49.529597,-79019.432095,-79019.432095,4755.526838,-83774.958933,0.000000,0.000000,HOLD
18 November 2025,570.571535,24.491642,1.082192,57.431012,0.548210,0.002724,-0.104358,2.350637,54.821034,0.000000,54.821034,-79019.432095,-79019.432095,5743.101169,-84762.533264,0.000000,0.000000,HOLD
19 November 2025,576.367994,24.491642,1.079452,60.548379,0.563642,0.002685,-0.105891,2.358512,56.364207,0.000000,56.364207,-79019.432095,-79019.432095,6054.837928,-85074.270024,0.000000,0.000000,HOLD
20 November 2025,588.647142,24.491642,1.076712,67.560863,0.595825,0.002589,-0.108640,2.366135,59.582482,0.000000,59.582482,-79019.432095,-79019.432095,6756.086260,-85775.518355,0.000000,0.000000,HOLD
21 November 2025,590.662400,24.491642,1.073973,68.657776,0.600839,0.002576,-0.109126,2.363569,60.083918,0.000000,60.083918,-79019.432095,-79019.432095,6865.777598,-85885.209693,0.000000,0.000000,HOLD
22 November 2025,591.337446,24.491642,1.071233,68.954654,0.602391,0.002573,-0.109354,2.360804,60.239138,0.000000,60.239138,-79019.432095,-79019.432095,6895.465360,-85914.897455,0.000000,0.000000,HOLD
23 November 2025,594.864314,24.491642,1.068493,70.985112,0.611240,0.002545,-0.110088,2.357099,61.123964,0.000000,61.123964,-79019.432095,-79019.432095,7098.511224,-86117.943320,0.000000,0.000000,HOLD
24 November 2025,600.414691,24.491642,1.065753,74.305627,0.625074,0.002498,-0.111096,2.350259,62.507357,0.000000,62.507357,-79019.432095,-79019.432095,7430.562701,-86449.994796,0.000000,0.000000,HOLD
25 November 2025,588.932378,24.491642,1.063014,67.186160,0.595596,0.002605,-0.109210,2.352512,59.559552,0.000000,59.559552,-79019.432095,-79019.432095,6718.615970,-85738.048065,0.000000,0.000000,HOLD
26 November 2025,585.094943,24.491642,1.060274,64.811375,0.585326,0.002642,-0.108540,2.348321,58.532629,0.000000,58.532629,-79019.432095,-79019.432095,6481.137525,-85500.569620,0.000000,0.000000,HOLD
27 November 2025,578.828764,24.491642,1.057534,61.088608,0.568380,0.002696,-0.107257,2.339724,56.837981,0.000000,56.837981,-79019.432095,-79019.432095,6108.860831,-85128.292926,0.000000,0.000000,HOLD
28 November 2025,576.813946,24.491642,1.054795,59.842080,0.562691,0.002716,-0.106880,2.334119,56.269085,0.000000,56.269085,-79019.432095,-79019.432095,5984.208007,-85003.640102,0.000000,0.000000,HOLD
29 November 2025,576.515903,24.491642,1.052055,59.567637,0.561639,0.002722,-0.106907,2.330854,56.163865,0.000000,56.163865,-79019.432095,-79019.432095,5956.763714,-84976.195810,0.000000,0.000000,HOLD
30 November 2025,570.690999,24.491642,1.049315,56.237088,0.545394,0.002768,-0.105525,2.317077,54.539355,0.000000,54.539355,-79019.432095,-79019.432095,5623.708848,-84643.140943,0.000000,0.000000,HOLD
1 December 2025,559.396263,24.491642,1.046575,50.152886,0.513393,0.002845,-0.102370,2.281760,51.339335,0.000000,51.339335,-79019.432095,-79019.432095,5015.288574,-84034.720669,0.000000,0.000000,HOLD
2 December 2025,564.299345,24.491642,1.043836,52.600285,0.526979,0.002819,-0.103935,2.294780,52.697854,0.000000,52.697854,-79019.432095,-79019.432095,5260.028471,-84279.460566,0.000000,0.000000,HOLD
3 December 2025,571.092679,24.491642,1.041096,56.139054,0.545710,0.002777,-0.105924,2.309398,54.570994,0.000000,54.570994,-79019.432095,-79019.432095,5613.905400,-84633.337495,0.000000,0.000000,HOLD
4 December 2025,572.388141,24.491642,1.038356,56.742013,0.549040,0.002772,-0.106364,2.309277,54.904019,54.904019,54.904019,-110445.841543,-79019.432095,5674.201315,-84693.633410,0.000000,0.000000,BUY
5 December 2025,577.558084,24.491642,1.035616,59.509675,0.563028,0.002737,-0.107767,2.315472,56.302839,0.000000,56.302839,-110445.841543,-110445.841543,5950.967481,-116396.809023,0.000000,0.000000,HOLD
6 December 2025,579.369310,24.491642,1.032877,60.425677,0.567737,0.002726,-0.108303,2.315094,56.773709,0.000000,56.773709,-110445.841543,-110445.841543,6042.567693,-116488.409235,0.000000,0.000000,HOLD
7 December 2025,584.331503,24.491642,1.030137,63.166823,0.580950,0.002690,-0.109530,2.317135,58.095000,0.000000,58.095000,-110445.841543,-110445.841543,6316.682318,-116762.523860,0.000000,0.000000,HOLD
8 December 2025,593.143409,24.491642,1.027397,68.278208,0.604134,0.002617,-0.111401,2.316315,60.413406,0.000000,60.413406,-110445.841543,-110445.841543,6827.820781,-117273.662324,0.000000,0.000000,HOLD
9 December 2025,591.890545,24.491642,1.024658,67.412142,0.600661,0.002632,-0.111279,2.313740,60.066063,0.000000,60.066063,-110445.841543,-110445.841543,6741.214229,-117187.055771,0.000000,0.000000,HOLD
10 December 2025,586.105278,24.491642,1.021918,63.871309,0.585076,0.002686,-0.110233,2.309754,58.507618,0.000000,58.507618,-110445.841543,-110445.841543,6387.130932,-116832.972475,0.000000,0.000000,HOLD
11 December 2025,584.286376,24.491642,1.019178,62.701668,0.579957,0.002706,-0.109951,2.305788,57.995713,0.000000,57.995713,-110445.841543,-110445.841543,6270.166837,-116716.008380,0.000000,0.000000,HOLD
12 December 2025,593.620209,24.491642,1.016438,68.119712,0.604652,0.002628,-0.111935,2.304959,60.465239,0.000000,60.465239,-110445.841543,-110445.841543,6811.971185,-117257.812728,0.000000,0.000000,HOLD
13 December 2025,602.938356,24.491642,1.013699,73.753234,0.628580,0.002543,-0.113586,2.294891,62.858048,0.000000,62.858048,-110445.841543,-110445.841543,7375.323356,-117821.164898,0.000000,0.000000,HOLD
14 December 2025,607.912829,24.491642,1.010959,76.797015,0.640977,0.002497,-0.114389,2.284589,64.097718,0.000000,64.097718,-110445.841543,-110445.841543,7679.701518,-118125.543060,0.000000,0.000000,HOLD
15 December 2025,595.796755,24.491642,1.008219,69.104492,0.609825,0.002619,-0.112665,2.295616,60.982518,0.000000,60.982518,-110445.841543,-110445.841543,6910.449159,-117356.290701,0.000000,0.000000,HOLD
16 December 2025,604.043498,24.491642,1.005479,74.107692,0.630954,0.002543,-0.114096,2.284996,63.095402,0.000000,63.095402,-110445.841543,-110445.841543,7410.769218,-117856.610761,0.000000,0.000000,HOLD
17 December 2025,588.447533,24.491642,1.002740,64.471321,0.589920,0.002694,-0.111496,2.290809,58.992044,0.000000,58.992044,-110445.841543,-110445.841543,6447.132116,-116892.973659,0.000000,0.000000,HOLD
18 December 2025,594.415507,24.491642,1.000000,67.926901,0.605656,0.002644,-0.112764,2.287717,60.565561,0.000000,60.565561,-110445.841543,-110445.841543,6792.690091,-117238.531634,0.000000,0.000000,HOLD
19 December 2025,587.369084,24.491642,0.997260,63.613920,0.586591,0.002711,-0.111498,2.284711,58.659078,0.000000,58.659078,-110445.841543,-110445.841543,6361.391967,-116807.233510,0.000000,0.000000,HOLD
20 December 2025,589.904426,24.491642,0.994521,64.997742,0.593236,0.002693,-0.112133,2.282532,59.323647,0.000000,59.323647,-110445.841543,-110445.841543,6499.774233,-116945.615775,0.000000,0.000000,HOLD
21 December 2025,585.298465,24.491642,0.991781,62.182804,0.580520,0.002737,-0.111280,2.277861,58.052000,0.000000,58.052000,-110445.841543,-110445.841543,6218.280448,-116664.121991,0.000000,0.000000,HOLD
22 December 2025,583.219978,24.491642,0.989041,60.871256,0.574584,0.002759,-0.110927,2.273370,57.458369,0.000000,57.458369,-110445.841543,-110445.841543,6087.125597,-116532.967140,0.000000,0.000000,HOLD
23 December 2025,573.014755,24.491642,0.986301,55.044185,0.545736,0.002844,-0.108486,2.255351,54.573628,0.000000,54.573628,-110445.841543,-110445.841543,5504.418542,-115950.260085,0.000000,0.000000,HOLD
24 December 2025,580.140385,24.491642,0.983562,58.894266,0.565564,0.002793,-0.110426,2.264256,56.556374,56.556374,56.556374,-143256.478375,-110445.841543,5889.426576,-116335.268119,0.000000,0.000000,BUY
25 December 2025,579.719659,24.491642,0.980822,58.546186,0.564144,0.002800,-0.110436,2.260792,56.414358,0.000000,56.414358,-143256.478375,-143256.478375,5854.618623,-149111.096998,0.000000,0.000000,HOLD
26 December 2025,584.073797,24.491642,0.978082,60.917459,0.576032,0.002769,-0.111576,2.262461,57.603233,0.000000,57.603233,-143256.478375,-143256.478375,6091.745920,-149348.224295,0.000000,0.000000,HOLD
27 December 2025,597.684103,24.491642,0.975342,68.895815,0.612717,0.002649,-0.114403,2.260206,61.271686,0.000000,61.271686,-143256.478375,-143256.478375,6889.581547,-150146.059922,0.000000,0.000000,HOLD
28 December 2025,589.885245,24.491642,0.972603,64.085624,0.591569,0.002726,-0.113061,2.259434,59.156855,0.000000,59.156855,-143256.478375,-143256.478375,6408.562419,-149665.040794,0.000000,0.000000,HOLD
29 December 2025,592.163947,24.491642,0.969863,65.327118,0.597562,0.002709,-0.113634,2.256601,59.756201,0.000000,59.756201,-143256.478375,-143256.478375,6532.711798,-149789.190173,0.000000,0.000000,HOLD
30 December 2025,593.634504,24.491642,0.967123,66.094815,0.601347,0.002700,-0.114036,2.253440,60.134733,0.000000,60.134733,-143256.478375,-143256.478375,6609.481520,-149865.959895,0.000000,0.000000,HOLD
31 December 2025,582.963990,24.491642,0.964384,59.721837,0.571789,0.002799,-0.111898,2.246819,57.178939,0.000000,57.178939,-143256.478375,-143256.478375,5972.183701,-149228.662076,0.000000,0.000000,HOLD
1 January 2026,587.548767,24.491642,0.961644,62.259659,0.584317,0.002764,-0.113047,2.247056,58.431747,0.000000,58.431747,-143256.478375,-143256.478375,6225.965857,-149482.444231,0.000000,0.000000,HOLD
2 January 2026,588.596001,24.491642,0.958904,62.759760,0.586996,0.002759,-0.113390,2.244512,58.699575,0.000000,58.699575,-143256.478375,-143256.478375,6275.975962,-149532.454337,0.000000,0.000000,HOLD
3 January 2026,591.349025,24.491642,0.956164,64.272179,0.594356,0.002738,-0.114077,2.242027,59.435618,0.000000,59.435618,-143256.478375,-143256.478375,6427.217893,-149683.696268,0.000000,0.000000,HOLD
4 January 2026,596.740247,24.491642,0.953425,67.400872,0.608802,0.002691,-0.115218,2.237553,60.880228,0.000000,60.880228,-143256.478375,-143256.478375,6740.087229,-149996.565604,0.000000,0.000000,HOLD
5 January 2026,603.630447,24.491642,0.950685,71.542575,0.626959,0.002626,-0.116468,2.228081,62.695928,0.000000,62.695928,-143256.478375,-143256.478375,7154.257466,-150410.735841,0.000000,0.000000,HOLD
6 January 2026,592.412914,24.491642,0.947945,64.562641,0.596675,0.002741,-0.114657,2.233153,59.667545,0.000000,59.667545,-143256.478375,-143256.478375,6456.264083,-149712.742457,0.000000,0.000000,HOLD
7 January 2026,585.228336,24.491642,0.945205,60.233892,0.576520,0.002810,-0.113253,2.227974,57.652006,0.000000,57.652006,-143256.478375,-143256.478375,6023.389225,-149279.867600,0.000000,0.000000,HOLD
8 January 2026,584.463479,24.491642,0.942466,59.680622,0.574136,0.002821,-0.113198,2.224404,57.413624,0.000000,57.413624,-143256.478375,-143256.478375,5968.062180,-149224.540555,0.000000,0.000000,HOLD
9 January 2026,574.103876,24.491642,0.939726,53.775114,0.544190,0.002909,-0.110669,2.206612,54.419009,0.000000,54.419009,-143256.478375,-143256.478375,5377.511369,-148633.989744,0.000000,0.000000,HOLD
10 January 2026,571.083925,24.491642,0.936986,52.035123,0.535079,0.002935,-0.109919,2.196814,53.507924,0.000000,53.507924,-143256.478375,-143256.478375,5203.512258,-148459.990633,0.000000,0.000000,HOLD
11 January 2026,576.628771,24.491642,0.934247,54.935437,0.550974,0.002899,-0.111593,2.205325,55.097391,0.000000,55.097391,-143256.478375,-143256.478375,5493.543697,-148750.022072,0.000000,0.000000,HOLD
12 January 2026,574.115351,24.491642,0.931507,53.448824,0.543383,0.002922,-0.111019,2.197476,54.338338,0.000000,54.338338,-143256.478375,-143256.478375,5344.882404,-148601.360779,0.000000,0.000000,HOLD
13 January 2026,567.834465,24.491642,0.928767,49.984615,0.524578,0.002971,-0.109275,2.179014,52.457758,52.457758,52.457758,-173043.801261,-143256.478375,4998.461550,-148254.939925,0.000000,0.000000,BUY
14 January 2026,565.478612,24.491642,0.926027,48.648461,0.517239,0.002991,-0.108641,2.168865,51.723900,0.000000,51.723900,-173043.801261,-173043.801261,4864.846063,-177908.647323,0.000000,0.000000,HOLD
15 January 2026,568.852268,24.491642,0.923288,50.300667,0.526985,0.002973,-0.109814,2.175620,52.698464,0.000000,52.698464,-173043.801261,-173043.801261,5030.066718,-178073.867979,0.000000,0.000000,HOLD
16 January 2026,566.996531,24.491642,0.920548,49.218557,0.521139,0.002990,-0.109348,2.167222,52.113922,0.000000,52.113922,-173043.801261,-173043.801261,4921.855721,-177965.656981,0.000000,0.000000,HOLD
17 January 2026,559.662952,24.491642,0.917808,45.370600,0.498697,0.003038,-0.107007,2.138998,49.869654,0.000000,49.869654,-173043.801261,-173043.801261,4537.059954,-177580.861214,0.000000,0.000000,HOLD
18 January 2026,550.090727,24.491642,0.915068,40.633386,0.469000,0.003086,-0.103534,2.092943,46.900001,0.000000,46.900001,-173043.801261,-173043.801261,4063.338597,-177107.139858,0.000000,0.000000,HOLD
19 January 2026,541.375183,24.491642,0.912329,36.563412,0.441547,0.003116,-0.100010,2.040745,44.154675,0.000000,44.154675,-173043.801261,-173043.801261,3656.341167,-176700.142427,0.000000,0.000000,HOLD
20 January 2026,542.279366,24.491642,0.909589,36.863481,0.443933,0.003118,-0.100486,2.042859,44.393281,0.000000,44.393281,-173043.801261,-173043.801261,3686.348135,-176730.149395,0.000000,0.000000,HOLD
21 January 2026,541.237059,24.491642,0.906849,36.302385,0.440245,0.003125,-0.100118,2.033090,44.024491,0.000000,44.024491,-173043.801261,-173043.801261,3630.238524,-176674.039784,0.000000,0.000000,HOLD
22 January 2026,554.920775,24.491642,0.904110,42.512232,0.482355,0.003084,-0.105796,2.102938,48.235523,0.000000,48.235523,-173043.801261,-173043.801261,4251.223183,-177295.024443,0.000000,0.000000,HOLD
23 January 2026,549.161160,24.491642,0.901370,39.681752,0.464118,0.003112,-0.103637,2.071572,46.411812,0.000000,46.411812,-173043.801261,-173043.801261,3968.175166,-177011.976426,0.000000,0.000000,HOLD
24 January 2026,542.837432,24.491642,0.898630,36.708115,0.443946,0.003134,-0.101073,2.032614,44.394598,0.000000,44.394598,-173043.801261,-173043.801261,3670.811504,-176714.612765,0.000000,0.000000,HOLD
25 January 2026,538.909986,24.491642,0.895890,34.889359,0.431170,0.003146,-0.099416,2.004587,43.116955,0.000000,43.116955,-173043.801261,-173043.801261,3488.935922,-176532.737182,0.000000,0.000000,HOLD
26 January 2026,535.605760,24.491642,0.893151,33.383921,0.420302,0.003154,-0.097975,1.978947,42.030168,0.000000,42.030168,-173043.801261,-173043.801261,3338.392124,-176382.193385,0.000000,0.000000,HOLD
27 January 2026,544.372878,24.491642,0.890411,37.087855,0.447466,0.003143,-0.102004,2.031489,44.746587,0.000000,44.746587,-173043.801261,-173043.801261,3708.785500,-176752.586761,0.000000,0.000000,HOLD
28 January 2026,529.997045,24.491642,0.887671,30.885469,0.401625,0.003162,-0.095427,1.931216,40.162523,0.000000,40.162523,-173043.801261,-173043.801261,3088.546875,-176132.348136,0.000000,0.000000,HOLD
29 January 2026,529.832908,24.491642,0.884932,30.724209,0.400612,0.003166,-0.095415,1.926371,40.061168,0.000000,40.061168,-173043.801261,-173043.801261,3072.420950,-176116.222211,0.000000,0.000000,HOLD
30 January 2026,529.749556,24.491642,0.882192,30.595421,0.399851,0.003170,-0.095442,1.922128,39.985136,0.000000,39.985136,-173043.801261,-173043.801261,3059.542063,-176103.343324,0.000000,0.000000,HOLD
31 January 2026,522.659689,24.491642,0.879452,27.748290,0.376880,0.003164,-0.091879,1.861523,37.688032,0.000000,37.688032,-173043.801261,-173043.801261,2774.828975,-175818.630236,0.000000,0.000000,HOLD
1 February 2026,528.188275,24.491642,0.876712,29.785548,0.393893,0.003176,-0.094794,1.902798,39.389320,0.000000,39.389320,-173043.801261,-173043.801261,2978.554783,-176022.356043,0.000000,0.000000,HOLD
2 February 2026,531.315353,24.491642,0.873973,30.936422,0.403335,0.003183,-0.096431,1.923120,40.333505,40.333505,40.333505,-194473.611507,-173043.801261,3093.642210,-176137.443471,0.000000,0.000000,BUY
3 February 2026,526.198629,24.491642,0.871233,28.820441,0.386544,0.003181,-0.093906,1.879635,38.654406,0.000000,38.654406,-194473.611507,-194473.611507,2882.044056,-197355.655562,0.000000,0.000000,HOLD
4 February 2026,528.551274,24.491642,0.868493,29.643503,0.393523,0.003188,-0.095181,1.894668,39.352342,0.000000,39.352342,-194473.611507,-194473.611507,2964.350264,-197437.961770,0.000000,0.000000,HOLD
5 February 2026,528.137093,24.491642,0.865753,29.385784,0.391690,0.003192,-0.095036,1.887740,39.169034,0.000000,39.169034,-194473.611507,-194473.611507,2938.578369,-197412.189876,0.000000,0.000000,HOLD
6 February 2026,526.527557,24.491642,0.863014,28.665240,0.386034,0.003193,-0.094269,1.871197,38.603430,0.000000,38.603430,-194473.611507,-194473.611507,2866.524033,-197340.135539,0.000000,0.000000,HOLD
7 February 2026,526.009056,24.491642,0.860274,28.371481,0.383855,0.003196,-0.094062,1.863274,38.385461,0.000000,38.385461,-194473.611507,-194473.611507,2837.148057,-197310.759563,0.000000,0.000000,HOLD
8 February 2026,533.264632,24.491642,0.857534,31.142980,0.406582,0.003208,-0.097845,1.915794,40.658161,0.000000,40.658161,-194473.611507,-194473.611507,3114.298012,-197587.909518,0.000000,0.000000,HOLD
9 February 2026,543.173920,24.491642,0.854795,35.226742,0.437889,0.003204,-0.102661,1.979126,43.788940,0.000000,43.788940,-194473.611507,-194473.611507,3522.674238,-197996.285745,0.000000,0.000000,HOLD
10 February 2026,553.599359,24.491642,0.852055,39.858398,0.470749,0.003179,-0.107272,2.033152,47.074880,0.000000,47.074880,-194473.611507,-194473.611507,3985.839821,-198459.451327,0.000000,0.000000,HOLD
11 February 2026,536.174909,24.491642,0.849315,32.041635,0.414453,0.003220,-0.099521,1.925794,41.445271,0.000000,41.445271,-194473.611507,-194473.611507,3204.163527,-197677.775033,0.000000,0.000000,HOLD
12 February 2026,544.728176,24.491642,0.846575,35.600682,0.441513,0.003215,-0.103650,1.977979,44.151274,0.000000,44.151274,-194473.611507,-194473.611507,3560.068238,-198033.679744,0.000000,0.000000,HOLD
13 February 2026,560.031131,24.491642,0.843836,42.621796,0.489971,0.003165,-0.110149,2.051700,48.997111,0.000000,48.997111,-194473.611507,-194473.611507,4262.179630,-198735.791137,0.000000,0.000000,HOLD
14 February 2026,555.129463,24.491642,0.841096,40.149961,0.473993,0.003193,-0.108335,2.026763,47.399346,0.000000,47.399346,-194473.611507,-194473.611507,4014.996069,-198488.607575,0.000000,0.000000,HOLD
15 February 2026,553.629587,24.491642,0.838356,39.334848,0.468786,0.003204,-0.107830,2.016098,46.878581,0.000000,46.878581,-194473.611507,-194473.611507,3933.484778,-198407.096284,0.000000,0.000000,HOLD
16 February 2026,549.277340,24.491642,0.835616,37.218938,0.454373,0.003223,-0.106080,1.989997,45.437296,0.000000,45.437296,-194473.611507,-194473.611507,3721.893759,-198195.505266,0.000000,0.000000,HOLD
17 February 2026,554.447348,24.491642,0.832877,39.502714,0.470579,0.003210,-0.108392,2.013157,47.057902,0.000000,47.057902,-194473.611507,-194473.611507,3950.271391,-198423.882897,0.000000,0.000000,HOLD
18 February 2026,554.314675,24.491642,0.830137,39.331917,0.469738,0.003216,-0.108449,2.009044,46.973766,0.000000,46.973766,-194473.611507,-194473.611507,3933.191658,-198406.803164,0.000000,0.000000,HOLD
19 February 2026,556.873360,24.491642,0.827397,40.434788,0.477549,0.003211,-0.109613,2.017600,47.754939,0.000000,47.754939,-194473.611507,-194473.611507,4043.478846,-198517.090352,0.000000,0.000000,HOLD
20 February 2026,554.123725,24.491642,0.824658,39.025315,0.468287,0.003227,-0.108595,2.001145,46.828651,0.000000,46.828651,-194473.611507,-194473.611507,3902.531484,-198376.142990,0.000000,0.000000,HOLD
21 February 2026,562.864288,24.491642,0.821918,43.129068,0.495951,0.003192,-0.112193,2.035662,49.595060,0.000000,49.595060,-194473.611507,-194473.611507,4312.906764,-198786.518270,0.000000,0.000000,HOLD
22 February 2026,565.622366,24.491642,0.819178,44.395785,0.504371,0.003182,-0.113339,2.042207,50.437110,50.437110,50.437110,-223001.969000,-194473.611507,4439.578487,-198913.189994,0.000000,0.000000,BUY
23 February 2026,562.444904,24.491642,0.816438,42.697034,0.493853,0.003205,-0.112286,2.027217,49.385274,0.000000,49.385274,-223001.969000,-223001.969000,4269.703366,-227271.672366,0.000000,0.000000,HOLD
24 February 2026,563.051963,24.491642,0.813699,42.884842,0.495419,0.003207,-0.112643,2.026104,49.541920,0.000000,49.541920,-223001.969000,-223001.969000,4288.484240,-227290.453241,0.000000,0.000000,HOLD
25 February 2026,577.203797,24.491642,0.810959,50.096674,0.539874,0.003118,-0.117603,2.063299,53.987406,0.000000,53.987406,-223001.969000,-223001.969000,5009.667394,-228011.636394,0.000000,0.000000,HOLD
26 February 2026,583.605655,24.491642,0.808219,53.496909,0.559400,0.003070,-0.119577,2.069875,55.939999,0.000000,55.939999,-223001.969000,-223001.969000,5349.690899,-228351.659899,0.000000,0.000000,HOLD
27 February 2026,580.523136,24.491642,0.805479,51.668379,0.549609,0.003102,-0.118872,2.062441,54.960934,0.000000,54.960934,-223001.969000,-223001.969000,5166.837872,-228168.806872,0.000000,0.000000,HOLD
28 February 2026,573.511230,24.491642,0.802740,47.774498,0.527335,0.003163,-0.116871,2.045118,52.733460,0.000000,52.733460,-223001.969000,-223001.969000,4777.449756,-227779.418756,0.000000,0.000000,HOLD
1 March 2026,578.837342,24.491642,0.800000,50.509208,0.543775,0.003127,-0.118676,2.052989,54.377519,0.000000,54.377519,-223001.969000,-223001.969000,5050.920797,-228052.889797,0.000000,0.000000,HOLD
2 March 2026,587.052792,24.491642,0.797260,54.960315,0.568927,0.003061,-0.121084,2.059870,56.892740,0.000000,56.892740,-223001.969000,-223001.969000,5496.031516,-228498.000516,0.000000,0.000000,HOLD
3 March 2026,583.056960,24.491642,0.794521,52.591403,0.556348,0.003103,-0.120185,2.052639,55.634808,0.000000,55.634808,-223001.969000,-223001.969000,5259.140322,-228261.109322,0.000000,0.000000,HOLD
4 March 2026,564.915678,24.491642,0.791781,42.902809,0.498397,0.003240,-0.114396,2.005362,49.839654,0.000000,49.839654,-223001.969000,-223001.969000,4290.280877,-227292.249877,0.000000,0.000000,HOLD
5 March 2026,568.046114,24.491642,0.789041,44.363232,0.508150,0.003228,-0.115693,2.012579,50.815001,0.000000,50.815001,-223001.969000,-223001.969000,4436.323165,-227438.292165,0.000000,0.000000,HOLD
6 March 2026,574.854143,24.491642,0.786301,47.779082,0.529645,0.003187,-0.118177,2.027967,52.964498,0.000000,52.964498,-223001.969000,-223001.969000,4777.908152,-227779.877152,0.000000,0.000000,HOLD
7 March 2026,578.439555,24.491642,0.783562,49.579121,0.540717,0.003165,-0.119456,2.032052,54.071671,0.000000,54.071671,-223001.969000,-223001.969000,4957.912136,-227959.881136,0.000000,0.000000,HOLD
8 March 2026,583.505203,24.491642,0.780822,52.237621,0.556365,0.003128,-0.121084,2.036419,55.636462,0.000000,55.636462,-223001.969000,-223001.969000,5223.762057,-228225.731057,0.000000,0.000000,HOLD
9 March 2026,577.299242,24.491642,0.778082,48.726084,0.536477,0.003185,-0.119407,2.023034,53.647727,0.000000,53.647727,-223001.969000,-223001.969000,4872.608360,-227874.577360,0.000000,0.000000,HOLD
10 March 2026,580.262983,24.491642,0.775342,50.209629,0.545586,0.003167,-0.120467,2.025042,54.558567,0.000000,54.558567,-223001.969000,-223001.969000,5020.962906,-228022.931906,0.000000,0.000000,HOLD
11 March 2026,594.378612,24.491642,0.772603,58.098099,0.589171,0.003040,-0.124250,2.031973,58.917072,0.000000,58.917072,-223001.969000,-223001.969000,5809.809928,-228811.778928,0.000000,0.000000,HOLD
12 March 2026,590.436558,24.491642,0.769863,55.675843,0.576870,0.003086,-0.123519,2.028274,57.686953,0.000000,57.686953,-223001.969000,-223001.969000,5567.584271,-228569.553271,0.000000,0.000000,HOLD
13 March 2026,585.745814,24.491642,0.767123,52.881597,0.562021,0.003137,-0.122495,2.021905,56.202137,0.000000,56.202137,-223001.969000,-223001.969000,5288.159728,-228290.128728,0.000000,0.000000,HOLD
14 March 2026,588.612566,24.491642,0.764384,54.382304,0.570724,0.003115,-0.123404,2.020684,57.072361,57.072361,57.072361,-256595.478132,-223001.969000,5438.230448,-228440.199448,0.000000,0.000000,BUY
15 March 2026,588.735081,24.491642,0.761644,54.328733,0.570854,0.003120,-0.123601,2.017360,57.085425,0.000000,57.085425,-256595.478132,-256595.478132,5432.873270,-262028.351402,0.000000,0.000000,HOLD
16 March 2026,592.556018,24.491642,0.758904,56.408013,0.582475,0.003088,-0.124688,2.015197,58.247482,0.000000,58.247482,-256595.478132,-256595.478132,5640.801290,-262236.279422,0.000000,0.000000,HOLD
17 March 2026,593.057648,24.491642,0.756164,56.575701,0.583796,0.003089,-0.124973,2.011829,58.379597,0.000000,58.379597,-256595.478132,-256595.478132,5657.570072,-262253.048204,0.000000,0.000000,HOLD
18 March 2026,594.456418,24.491642,0.753425,57.269943,0.587887,0.003080,-0.125457,2.008340,58.788729,0.000000,58.788729,-256595.478132,-256595.478132,5726.994286,-262322.472418,0.000000,0.000000,HOLD
19 March 2026,593.362417,24.491642,0.750685,56.503339,0.584286,0.003097,-0.125387,2.005022,58.428571,0.000000,58.428571,-256595.478132,-256595.478132,5650.333882,-262245.812014,0.000000,0.000000,HOLD
20 March 2026,585.344474,24.491642,0.747945,51.795543,0.558852,0.003183,-0.123547,1.997544,55.885181,0.000000,55.885181,-256595.478132,-256595.478132,5179.554276,-261775.032408,0.000000,0.000000,HOLD
21 March 2026,592.651048,24.491642,0.745205,55.837684,0.581618,0.003117,-0.125572,1.998156,58.161762,0.000000,58.161762,-256595.478132,-256595.478132,5583.768414,-262179.246546,0.000000,0.000000,HOLD
22 March 2026,593.479242,24.491642,0.742466,56.194595,0.583969,0.003114,-0.125938,1.994753,58.396868,0.000000,58.396868,-256595.478132,-256595.478132,5619.459451,-262214.937583,0.000000,0.000000,HOLD
23 March 2026,594.331048,24.491642,0.739726,56.566933,0.586396,0.003112,-0.126307,1.991258,58.639556,0.000000,58.639556,-256595.478132,-256595.478132,5656.693323,-262252.171455,0.000000,0.000000,HOLD
24 March 2026,592.631090,24.491642,0.736986,55.448582,0.580857,0.003136,-0.126097,1.987832,58.085743,0.000000,58.085743,-256595.478132,-256595.478132,5544.858197,-262140.336329,0.000000,0.000000,HOLD
25 March 2026,599.689274,24.491642,0.734247,59.498179,0.602531,0.003065,-0.127774,1.981933,60.253112,0.000000,60.253112,-256595.478132,-256595.478132,5949.817892,-262545.296024,0.000000,0.000000,HOLD
26 March 2026,608.248679,24.491642,0.731507,64.637249,0.628191,0.002968,-0.129368,1.967305,62.819100,0.000000,62.819100,-256595.478132,-256595.478132,6463.724940,-263059.203072,0.000000,0.000000,HOLD
27 March 2026,613.385611,24.491642,0.728767,67.773000,0.643161,0.002908,-0.130192,1.953004,64.316113,0.000000,64.316113,-256595.478132,-256595.478132,6777.299997,-263372.778129,0.000000,0.000000,HOLD
28 March 2026,622.666485,24.491642,0.726027,73.734523,0.669520,0.002789,-0.131148,1.922523,66.952038,0.000000,66.952038,-256595.478132,-256595.478132,7373.452317,-263968.930449,0.000000,0.000000,HOLD
29 March 2026,608.104460,24.491642,0.723288,64.157800,0.627342,0.002988,-0.129909,1.957189,62.734187,0.000000,62.734187,-256595.478132,-256595.478132,6415.780026,-263011.258158,0.000000,0.000000,HOLD
30 March 2026,599.663572,24.491642,0.720548,58.841552,0.601494,0.003096,-0.128692,1.964639,60.149381,0.000000,60.149381,-256595.478132,-256595.478132,5884.155197,-262479.633329,0.000000,0.000000,HOLD
31 March 2026,592.163089,24.491642,0.717808,54.290774,0.577717,0.003185,-0.127253,1.963400,57.771745,0.000000,57.771745,-256595.478132,-256595.478132,5429.077423,-262024.555555,0.000000,0.000000,HOLD
1 April 2026,586.123402,24.491642,0.715068,50.734238,0.558016,0.003252,-0.125858,1.956356,55.801591,0.000000,55.801591,-256595.478132,-256595.478132,5073.423844,-261668.901976,0.000000,0.000000,HOLD
2 April 2026,564.912498,24.491642,0.712329,39.524638,0.486802,0.003415,-0.118569,1.901051,48.680170,0.000000,48.680170,-256595.478132,-256595.478132,3952.463766,-260547.941898,0.000000,0.000000,HOLD
3 April 2026,562.167362,24.491642,0.709589,38.083721,0.476970,0.003434,-0.117538,1.886056,47.696983,47.696983,47.696983,-283409.165012,-256595.478132,3808.372075,-260403.850207,0.000000,0.000000,BUY
4 April 2026,562.155470,24.491642,0.706849,37.960442,0.476487,0.003440,-0.117683,1.882239,47.648699,0.000000,47.648699,-283409.165012,-283409.165012,3796.044151,-287205.209163,0.000000,0.000000,HOLD
5 April 2026,554.220570,24.491642,0.704110,34.174161,0.448576,0.003473,-0.114105,1.839860,44.857640,0.000000,44.857640,-283409.165012,-283409.165012,3417.416113,-286826.581125,0.000000,0.000000,HOLD
6 April 2026,550.967872,24.491642,0.701370,32.620937,0.436752,0.003486,-0.112592,1.817631,43.675152,0.000000,43.675152,-283409.165012,-283409.165012,3262.093700,-286671.258713,0.000000,0.000000,HOLD
